res/luts/cool.CUBE
#Created by: Adobe Photoshop Export Color Lookup Plugin
TITLE "Cool"
#LUT size
LUT_3D_SIZE 32
#data domain
DOMAIN_MIN 0.0 0.0 0.0
DOMAIN_MAX 1.0 1.0 1.0
#LUT data points
0.000000 0.000000 0.000000
0.032257 0.000000 0.009674
0.064514 0.000000 0.019348
0.096771 0.000000 0.029022
0.129028 0.000000 0.038696
0.161285 0.000000 0.048340
0.193542 0.000000 0.058014
0.225800 0.000000 0.067688
0.258057 0.000000 0.077362
0.290314 0.000000 0.087036
0.322571 0.000000 0.096710
0.354828 0.000000 0.106384
0.387085 0.000000 0.116058
0.419342 0.000000 0.125732
0.451599 0.000000 0.135406
0.483856 0.000000 0.145050
0.516144 0.000000 0.154755
0.548401 0.000000 0.164398
0.580658 0.000000 0.174072
0.612915 0.000000 0.183746
0.645172 0.000000 0.193420
0.677429 0.000000 0.203094
0.709686 0.000000 0.212769
0.741943 0.000000 0.222443
0.774200 0.000000 0.232117
0.806458 0.000000 0.241791
0.838715 0.000000 0.251465
0.870972 0.000000 0.261108
0.903229 0.000000 0.270782
0.935486 0.000000 0.280457
0.967743 0.000000 0.290131
1.000000 0.000000 0.299805
0.009674 0.032257 0.000000
0.032257 0.022583 0.000000
0.064514 0.012909 0.000000
0.096771 0.003235 0.000000
0.129028 0.000000 0.006439
0.161285 0.000000 0.016113
0.193542 0.000000 0.025757
0.225800 0.000000 0.035461
0.258057 0.000000 0.045105
0.290314 0.000000 0.054779
0.322571 0.000000 0.064423
0.354828 0.000000 0.074158
0.387085 0.000000 0.083832
0.419342 0.000000 0.093475
0.451599 0.000000 0.103088
0.483856 0.000000 0.112823
0.516144 0.000000 0.122498
0.548401 0.000000 0.132141
0.580658 0.000000 0.141754
0.612915 0.000000 0.151428
0.645172 0.000000 0.161133
0.677429 0.000000 0.170837
0.709686 0.000000 0.180542
0.741943 0.000000 0.190186
0.774200 0.000000 0.199799
0.806458 0.000000 0.209503
0.838715 0.000000 0.219086
0.870972 0.000000 0.228790
0.903229 0.000000 0.238586
0.935486 0.000000 0.248260
0.967743 0.000000 0.257751
1.000000 0.000000 0.267578
0.019348 0.064514 0.000000
0.051605 0.064514 0.000000
0.064514 0.045166 0.000000
0.096771 0.035522 0.000000
0.129028 0.025818 0.000000
0.161285 0.016144 0.000000
0.193542 0.006470 0.000000
0.225800 0.000000 0.003204
0.258057 0.000000 0.012848
0.290314 0.000000 0.022552
0.322571 0.000000 0.032196
0.354828 0.000000 0.041840
0.387085 0.000000 0.051514
0.419342 0.000000 0.061218
0.451599 0.000000 0.070892
0.483856 0.000000 0.080566
0.516144 0.000000 0.090210
0.548401 0.000000 0.099884
0.580658 0.000000 0.109589
0.612915 0.000000 0.119263
0.645172 0.000000 0.128845
0.677429 0.000000 0.138580
0.709686 0.000000 0.148315
0.741943 0.000000 0.157959
0.774200 0.000000 0.167664
0.806458 0.000000 0.177185
0.838715 0.000000 0.186951
0.870972 0.000000 0.196686
0.903229 0.000000 0.206177
0.935486 0.000000 0.216064
0.967743 0.000000 0.225647
1.000000 0.000000 0.235352
0.029022 0.096771 0.000000
0.061249 0.096771 0.000000
0.093536 0.096771 0.000000
0.096771 0.067749 0.000000
0.129028 0.058075 0.000000
0.161285 0.048431 0.000000
0.193542 0.038757 0.000000
0.225800 0.029053 0.000000
0.258057 0.019409 0.000000
0.290314 0.009705 0.000000
0.322571 0.000092 0.000000
0.354828 0.000000 0.009613
0.387085 0.000000 0.019287
0.419342 0.000000 0.028961
0.451599 0.000000 0.038574
0.483856 0.000000 0.048309
0.516144 0.000000 0.057953
0.548401 0.000000 0.067627
0.580658 0.000000 0.077271
0.612915 0.000000 0.086945
0.645172 0.000000 0.096710
0.677429 0.000000 0.106354
0.709686 0.000000 0.115906
0.741943 0.000000 0.125702
0.774200 0.000000 0.135345
0.806458 0.000000 0.144897
0.838715 0.000000 0.154602
0.870972 0.000000 0.164368
0.903229 0.000000 0.173981
0.935486 0.000000 0.183624
0.967743 0.000000 0.193268
1.000000 0.000000 0.203125
0.038696 0.129028 0.000000
0.070953 0.129028 0.000000
0.103210 0.129028 0.000000
0.129028 0.122589 0.000000
0.129028 0.090332 0.000000
0.161285 0.080688 0.000000
0.193542 0.071014 0.000000
0.225800 0.061371 0.000000
0.258057 0.051666 0.000000
0.290314 0.041962 0.000000
0.322571 0.032288 0.000000
0.354828 0.022614 0.000000
0.387085 0.012939 0.000000
0.419342 0.003265 0.000000
0.451599 0.000000 0.006409
0.483856 0.000000 0.016052
0.516144 0.000000 0.025696
0.548401 0.000000 0.035339
0.580658 0.000000 0.045074
0.612915 0.000000 0.054779
0.645172 0.000000 0.064423
0.677429 0.000000 0.074097
0.709686 0.000000 0.083679
0.741943 0.000000 0.093475
0.774200 0.000000 0.103027
0.806458 0.000000 0.112823
0.838715 0.000000 0.122437
0.870972 0.000000 0.132050
0.903229 0.000000 0.141785
0.935486 0.000000 0.151428
0.967743 0.000000 0.161133
1.000000 0.000000 0.170654
0.871643 0.397064 0.736786
0.872589 0.391144 0.732025
0.872650 0.391235 0.724213
0.877350 0.390594 0.725128
0.873627 0.385254 0.719452
0.877350 0.390594 0.725128
0.883057 0.383942 0.721222
0.887787 0.383270 0.722229
0.887726 0.383209 0.730072
0.900970 0.387146 0.737518
0.904785 0.392517 0.735321
0.896240 0.387848 0.736633
0.884827 0.371796 0.735413
0.773132 0.341248 0.650604
0.389221 0.163727 0.359009
0.053009 0.034393 0.065216
0.282928 0.235657 0.338196
0.335205 0.520447 0.575928
0.372009 0.452911 0.545959
0.575104 0.289886 0.506165
0.851990 0.376831 0.689575
0.856415 0.404938 0.746521
0.825165 0.368408 0.721802
0.818756 0.381256 0.698822
0.824310 0.374542 0.710785
0.820587 0.369232 0.705109
0.819733 0.375336 0.694092
0.823547 0.380707 0.691986
0.832001 0.385284 0.706360
0.836609 0.384430 0.723022
0.841339 0.383789 0.723938
0.784760 0.356903 0.683441
0.748047 0.321838 0.602478
0.781891 0.345825 0.657227
0.766449 0.353912 0.651337
0.771301 0.353241 0.652283
0.754822 0.338257 0.626465
0.761444 0.325409 0.641479
0.766266 0.324738 0.642395
0.752686 0.320831 0.634918
0.731476 0.305420 0.608734
0.690125 0.266510 0.566010
0.667999 0.256989 0.542480
0.617096 0.238739 0.528412
0.544220 0.204865 0.459534
0.523224 0.182312 0.442657
0.471069 0.164520 0.394043
0.429108 0.170654 0.377380
0.515381 0.339325 0.537537
0.432068 0.573639 0.647156
0.433197 0.666077 0.738434
0.378571 0.588959 0.669891
0.433655 0.467194 0.568604
0.734283 0.346649 0.651001
0.783905 0.304443 0.615570
0.776245 0.292755 0.604858
0.767456 0.287445 0.614166
0.762878 0.256073 0.588776
0.763641 0.281647 0.600891
0.774170 0.305817 0.613739
0.809143 0.324615 0.639984
0.786713 0.316101 0.633545
0.751007 0.302856 0.596741
0.723938 0.293854 0.582184
0.808258 0.359711 0.661407
0.782013 0.346008 0.641510
0.721924 0.307068 0.583160
0.724915 0.287231 0.585571
0.787628 0.310181 0.628876
0.796387 0.314728 0.635529
0.747070 0.296814 0.607025
0.745148 0.310028 0.600250
0.753754 0.315063 0.614410
0.776062 0.323425 0.636505
0.757568 0.320251 0.627960
0.743866 0.316193 0.636230
0.101776 0.068817 0.130341
0.044403 0.034393 0.065216
0.228577 0.308777 0.378998
0.356110 0.365143 0.494476
0.297455 0.357056 0.241455
0.314819 0.364014 0.231934
0.313202 0.371582 0.223145
0.313202 0.371582 0.223145
0.291626 0.359131 0.226318
0.284760 0.340546 0.222321
0.277618 0.352997 0.228027
0.297943 0.358948 0.226044
0.290741 0.354492 0.212219
0.295044 0.359955 0.218506
0.267883 0.335449 0.216553
0.283844 0.335846 0.208435
0.321594 0.389526 0.279907
0.325226 0.369263 0.238007
0.309204 0.351929 0.226715
0.290375 0.352631 0.227509
0.306335 0.352997 0.219177
0.299500 0.351318 0.234833
0.316101 0.370544 0.230743
0.284180 0.337738 0.193451
0.285217 0.342438 0.207245
0.286469 0.348969 0.206055
0.290375 0.352631 0.227509
0.322113 0.373138 0.260101
0.314209 0.362091 0.247314
0.316925 0.375244 0.244934
0.324493 0.364624 0.223816
0.305054 0.363403 0.239960
0.321106 0.380737 0.251282
0.325836 0.371155 0.222626
0.311859 0.365051 0.224335
0.315491 0.351715 0.226440
0.310211 0.342407 0.250916
0.304962 0.346436 0.220367
0.304291 0.358704 0.225769
0.297150 0.354279 0.211914
0.315308 0.365906 0.216522
0.302673 0.366333 0.217072
0.297943 0.358948 0.226044
0.289459 0.347931 0.213409
0.289459 0.347931 0.213409
0.300842 0.357880 0.233643
0.306580 0.355743 0.248810
0.287201 0.336700 0.200775
0.282166 0.343475 0.199860
0.275818 0.343658 0.200134
0.280884 0.336884 0.201050
0.287201 0.336700 0.200775
0.294434 0.341156 0.214325
0.304291 0.358704 0.225769
0.316101 0.370544 0.230743
0.305664 0.365295 0.224579
0.323151 0.375031 0.244690
0.325867 0.388092 0.242340
0.311859 0.365051 0.224335
0.295837 0.364655 0.232727
0.308441 0.364258 0.232208
0.317474 0.377136 0.229553
0.317474 0.377136 0.229553
0.303925 0.372833 0.215881
0.302673 0.366333 0.217072
0.301727 0.361603 0.203186
0.294098 0.355316 0.204620
0.297791 0.341980 0.206726
0.310547 0.358490 0.225525
0.321686 0.382599 0.235901
0.304749 0.360596 0.210480
0.284454 0.354706 0.212463
0.303497 0.371002 0.231262
0.302185 0.364441 0.232452
0.304291 0.358704 0.225769
0.290558 0.337494 0.193176
0.312439 0.366974 0.209015
0.325867 0.388092 0.242340
0.329407 0.393005 0.248810
0.307678 0.359558 0.217987
0.291504 0.342224 0.206970
0.300842 0.357880 0.233643
0.305511 0.382172 0.244293
0.304260 0.375671 0.245483
0.318665 0.366730 0.208771
0.317474 0.377136 0.229553
0.314423 0.361176 0.202606
0.309021 0.366119 0.216797
0.308044 0.361420 0.202881
0.316101 0.370544 0.230743
0.318665 0.366730 0.208771
0.300476 0.355103 0.204315
0.305664 0.365295 0.224579
0.294434 0.341156 0.214325
0.307861 0.345367 0.227936
0.292114 0.329926 0.201721
0.306732 0.354889 0.204071
0.293457 0.336456 0.200531
0.322357 0.370331 0.230499
0.278564 0.325653 0.188416
0.298798 0.331573 0.186462
0.326599 0.375854 0.236816
0.309021 0.366119 0.216797
0.304291 0.358704 0.225769
0.299164 0.348511 0.205536
0.311859 0.365051 0.224335
0.295288 0.345825 0.228455
0.297791 0.341980 0.206726
0.305664 0.365295 0.224579
0.311859 0.365051 0.224335
0.311859 0.365051 0.224335
0.304749 0.360596 0.210480
0.301392 0.359772 0.218262
0.290527 0.338440 0.237488
0.295807 0.347717 0.213135
0.290741 0.354492 0.212219
0.289825 0.349792 0.198425
0.298401 0.360809 0.210724
0.313965 0.359314 0.217743
0.313507 0.374420 0.252716
0.307129 0.357635 0.233368
0.301392 0.359772 0.218262
0.313965 0.359314 0.217743
0.293182 0.351562 0.235077
0.318268 0.364868 0.224060
0.298401 0.360809 0.210724
0.297150 0.354279 0.211914
0.317474 0.377136 0.229553
0.309814 0.370789 0.231018
0.295044 0.359955 0.218506
0.298798 0.363647 0.240265
0.324493 0.364624 0.223816
0.300842 0.357880 0.233643
0.322357 0.370331 0.230499
0.301575 0.345581 0.228180
0.311859 0.365051 0.224335
0.295044 0.359955 0.218506
0.290375 0.352631 0.227509
0.289490 0.364868 0.232971
0.297943 0.358948 0.226044
0.297943 0.358948 0.226044
0.299225 0.365509 0.224854
0.305664 0.365295 0.224579
0.294800 0.343048 0.199341
0.309814 0.370789 0.231018
0.295044 0.359955 0.218506
0.295288 0.345825 0.228455
0.303711 0.356812 0.241180
0.332703 0.380310 0.250824
0.320312 0.376068 0.237091
0.326843 0.380524 0.251068
0.311859 0.365051 0.224335
0.308197 0.378357 0.222229
0.306335 0.352997 0.219177
0.309265 0.368866 0.246399
0.319733 0.357208 0.232849
0.319397 0.394684 0.286652
0.295807 0.347717 0.213135
0.315338 0.382812 0.236176
0.322449 0.387238 0.250092
0.290741 0.354492 0.212219
0.307678 0.359558 0.217987
0.320282 0.359070 0.217468
0.325226 0.369263 0.238007
0.324493 0.364624 0.223816
0.318268 0.364868 0.224060
0.321838 0.368408 0.245880
0.299500 0.351318 0.234833
0.314819 0.364014 0.231934
0.309021 0.366119 0.216797
0.310333 0.372650 0.215637
0.297089 0.371155 0.231537
0.306396 0.369934 0.238831
0.296631 0.352386 0.227264
0.291504 0.342224 0.206970
0.299164 0.348511 0.205536
0.297150 0.354279 0.211914
0.303497 0.371002 0.231262
0.308960 0.383026 0.236420
0.298401 0.360809 0.210724
0.281525 0.324585 0.195831
0.301147 0.342804 0.199036
0.307068 0.340698 0.213806
0.321594 0.365662 0.216248
0.288147 0.341400 0.214569
0.316925 0.375244 0.244934
0.304749 0.360596 0.210480
0.291107 0.356323 0.197235
0.308960 0.383026 0.236420
0.311066 0.377350 0.229828
0.314087 0.376312 0.237335
0.287354 0.353638 0.219971
0.283142 0.348145 0.213654
0.327545 0.395905 0.225861
0.299164 0.348511 0.205536
0.295807 0.347717 0.213135
0.295044 0.359955 0.218506
0.325073 0.383453 0.228088
0.317474 0.377136 0.229553
0.282867 0.331177 0.194641
0.296143 0.349579 0.198151
0.304291 0.358704 0.225769
0.280884 0.336884 0.201050
0.303406 0.354065 0.211670
0.316132 0.387451 0.250397
0.301727 0.361603 0.203186
0.302460 0.349335 0.197906
0.309265 0.368866 0.246399
0.311432 0.380127 0.259399
0.305664 0.365295 0.224579
0.312439 0.366974 0.209015
0.315765 0.367798 0.201416
0.330780 0.390106 0.271851
0.308533 0.381165 0.251831
0.302917 0.352173 0.226959
0.321075 0.363800 0.231689
0.313965 0.359314 0.217743
0.303497 0.371002 0.231262
0.287201 0.336700 0.200775
0.317932 0.384552 0.273376
0.281860 0.341644 0.214844
0.285217 0.342438 0.207245
0.318420 0.367615 0.253693
0.329224 0.371979 0.214813
0.307678 0.359558 0.217987
0.299408 0.334351 0.215240
0.327911 0.382416 0.235657
0.318268 0.364868 0.224060
0.328674 0.370087 0.230225
0.316681 0.372437 0.215332
0.304749 0.360596 0.210480
0.293457 0.336456 0.200531
0.284882 0.325409 0.188171
0.303406 0.354065 0.211670
0.312714 0.369720 0.238525
0.292786 0.348755 0.205811
0.294098 0.355316 0.204620
0.302185 0.364441 0.232452
0.292053 0.360992 0.211029
0.313202 0.388458 0.242859
0.303833 0.355927 0.196686
0.306335 0.352997 0.219177
0.299164 0.348511 0.205536
0.291901 0.344086 0.191986
0.293701 0.370361 0.239349
0.285492 0.344299 0.192261
0.280060 0.349121 0.206329
0.290527 0.338440 0.237488
0.289215 0.330963 0.194366
0.285217 0.342438 0.207245
0.305664 0.365295 0.224579
0.313080 0.354645 0.203796
0.296417 0.335388 0.207916
0.300842 0.357880 0.233643
0.303711 0.356812 0.241180
0.283142 0.348145 0.213654
0.302460 0.349335 0.197906
0.329224 0.371979 0.214813
0.323761 0.376892 0.229309
0.277863 0.337921 0.193726
0.294006 0.356232 0.249329
0.294495 0.358093 0.233887
0.307251 0.374634 0.253021
0.296631 0.352386 0.227264
0.310669 0.375488 0.245209
0.290375 0.352631 0.227509
0.299194 0.382385 0.244537
0.317657 0.379883 0.259155
0.311371 0.363190 0.239716
0.290527 0.338440 0.237488
0.311371 0.363190 0.239716
0.280884 0.336884 0.201050
0.285217 0.342438 0.207245
0.297150 0.354279 0.211914
0.333069 0.398010 0.255371
0.300018 0.353241 0.219452
0.612762 0.903992 0.989288
0.820831 1.000000 0.950317
0.832642 1.000000 0.949829
0.867950 1.000000 0.960419
0.824768 1.000000 0.947479
0.765869 1.000000 0.997437
0.820831 1.000000 0.950317
0.761932 0.999237 1.000000
0.856201 1.000000 0.956879
0.667297 0.925018 1.000000
0.593292 0.878296 0.962250
0.761932 0.999237 1.000000
0.875824 1.000000 0.962769
0.879761 1.000000 0.963959
0.722137 0.965057 1.000000
0.879761 1.000000 0.963959
0.887573 1.000000 0.966309
0.922211 1.000000 0.976685
0.933777 1.000000 0.980133
0.887573 1.000000 0.966309
0.273590 0.452911 0.513794
0.273590 0.452911 0.513794
0.201141 0.355469 0.411499
0.187439 0.337006 0.392059
0.094086 0.207947 0.255127
0.056458 0.124786 0.153107
0.053741 0.118805 0.145782
0.275818 0.343658 0.200134
0.263672 0.314850 0.176331
0.269989 0.314636 0.176086
0.311035 0.360352 0.210205
0.314819 0.364014 0.231934
0.848328 1.000000 0.954529
0.933777 1.000000 0.980133
0.933777 1.000000 0.980133
0.933777 1.000000 0.980133
0.933777 1.000000 0.980133
0.933777 1.000000 0.980133
0.933777 1.000000 0.980133
0.933777 1.000000 0.980133
0.918365 1.000000 0.975525
0.742279 0.982391 1.000000
0.933777 1.000000 0.980133
0.922211 1.000000 0.976685
0.864044 1.000000 0.959229
0.801208 1.000000 0.967133
0.933777 1.000000 0.980133
0.922211 1.000000 0.976685
0.730194 0.971954 1.000000
0.597137 0.883423 0.967621
0.489532 0.740906 0.817322
0.077942 0.172333 0.211426
0.201141 0.355469 0.411499
0.024200 0.053497 0.065613
0.933777 1.000000 0.980133
0.577698 0.857727 0.940552
0.887573 1.000000 0.966309
0.856201 1.000000 0.956879
0.657959 0.922852 1.000000
0.045685 0.101013 0.123932
0.056458 0.124786 0.153107
0.053741 0.118805 0.145782
0.320862 0.377991 0.221710
0.315308 0.365906 0.216522
0.293457 0.336456 0.200531
0.310547 0.358490 0.225525
0.304962 0.346436 0.220367
0.288147 0.341400 0.214569
0.325165 0.394501 0.286438
0.322449 0.387238 0.250092
0.296631 0.352386 0.227264
0.264954 0.321411 0.175140
0.276337 0.346466 0.229218
0.297333 0.340088 0.221802
0.326202 0.396332 0.271027
0.307129 0.357635 0.233368
0.301575 0.345581 0.228180
0.328918 0.374817 0.244476
0.269470 0.327881 0.225250
0.322449 0.387238 0.250092
0.303711 0.356812 0.241180
0.285217 0.342438 0.207245
0.276611 0.331390 0.194885
0.301392 0.359772 0.218262
0.293854 0.338318 0.185547
0.303406 0.354065 0.211670
0.310547 0.358490 0.225525
0.299164 0.348511 0.205536
0.311035 0.360352 0.210205
0.301727 0.361603 0.203186
0.306732 0.354889 0.204071
0.294800 0.343048 0.199341
0.307678 0.359558 0.217987
0.319122 0.355286 0.248260
0.318268 0.364868 0.224060
0.312439 0.366974 0.209015
0.914520 1.000000 0.974365
0.832642 1.000000 0.949829
0.832642 1.000000 0.949829
0.789429 1.000000 0.977234
0.722137 0.965057 1.000000
0.832642 1.000000 0.949829
0.685852 0.933807 1.000000
0.505646 0.762268 0.839874
0.357971 0.565704 0.632629
0.051056 0.112885 0.138519
0.517700 0.778290 0.856750
0.616669 0.909180 0.994751
0.585480 0.868073 0.951416
0.391693 0.610809 0.680176
0.077942 0.172333 0.211426
0.061829 0.136688 0.167694
0.286896 0.351807 0.235352
0.283508 0.350952 0.243164
0.296631 0.352386 0.227264
0.298645 0.346619 0.220642
0.306335 0.352997 0.219177
0.290375 0.352631 0.227509
0.289490 0.364868 0.232971
0.283844 0.335846 0.208435
0.305389 0.348297 0.205292
0.322937 0.372192 0.215088
0.331329 0.383209 0.227844
0.312714 0.369720 0.238525
0.297943 0.358948 0.226044
0.308441 0.364258 0.232208
0.331360 0.373779 0.252014
0.332428 0.375671 0.236603
0.867950 1.000000 0.960419
0.933777 1.000000 0.980133
0.883667 1.000000 0.965118
0.820831 1.000000 0.950317
0.933777 1.000000 0.980133
0.933777 1.000000 0.980133
0.933777 1.000000 0.980133
0.933777 1.000000 0.980133
0.933777 1.000000 0.980133
0.933777 1.000000 0.980133
0.933777 1.000000 0.980133
0.933777 1.000000 0.980133
0.412781 0.639008 0.709869
0.820831 1.000000 0.950317
0.933777 1.000000 0.980133
0.937622 1.000000 0.981293
0.754089 0.992493 1.000000
0.676575 0.927185 1.000000
0.887573 1.000000 0.966309
0.473450 0.719574 0.794800
0.437195 0.671478 0.744080
0.155457 0.293884 0.346832
0.132507 0.263092 0.314484
0.109680 0.232300 0.282196
0.075256 0.166321 0.204071
0.059143 0.130676 0.160370
0.053741 0.118805 0.145782
0.056458 0.124786 0.153107
0.173737 0.318542 0.372711
0.408569 0.633362 0.703949
0.537842 0.805023 0.884949
0.824768 1.000000 0.947479
0.276184 0.329529 0.209869
0.309723 0.353821 0.211395
0.310059 0.355682 0.196411
0.300018 0.353241 0.219452
0.326599 0.375854 0.236816
0.333435 0.377502 0.221191
0.329987 0.376678 0.229004
0.327911 0.382416 0.235657
0.309021 0.366119 0.216797
0.331329 0.383209 0.227844
0.318665 0.366730 0.208771
0.329254 0.388916 0.234467
0.344635 0.397614 0.254883
0.297150 0.354279 0.211914
0.298401 0.360809 0.210724
0.289825 0.349792 0.198425
0.308044 0.361420 0.202881
0.309814 0.370789 0.231018
0.295837 0.364655 0.232727
0.266876 0.330780 0.202759
0.297455 0.357056 0.241455
0.288208 0.358307 0.234161
0.309814 0.370789 0.231018
0.324310 0.378784 0.213898
0.319519 0.388275 0.242584
0.319183 0.390533 0.272308
0.295807 0.347717 0.213135
0.316833 0.358246 0.225250
0.316101 0.370544 0.230743
0.288544 0.374542 0.257629
0.303406 0.354065 0.211670
0.297150 0.354279 0.211914
0.296631 0.352386 0.227264
0.327393 0.389313 0.279663
0.313965 0.359314 0.217743
0.309204 0.351929 0.226715
0.316315 0.373352 0.260345
0.301636 0.362579 0.247833
0.322113 0.373138 0.260101
0.302917 0.352173 0.226959
0.301575 0.345581 0.228180
0.302063 0.347473 0.212891
0.287842 0.324341 0.195557
0.279999 0.333130 0.231323
0.295837 0.364655 0.232727
0.296631 0.352386 0.227264
0.305054 0.363403 0.239960
0.315552 0.368652 0.246124
0.306396 0.369934 0.238831
0.302063 0.347473 0.212891
0.316101 0.370544 0.230743
0.312439 0.366974 0.209015
0.338654 0.393646 0.240814
0.299469 0.350403 0.190521
0.306335 0.352997 0.219177
0.300781 0.356964 0.189331
0.297791 0.341980 0.206726
0.293945 0.339294 0.229614
0.307678 0.359558 0.217987
0.319550 0.371399 0.222900
0.323151 0.375031 0.244690
0.306732 0.354889 0.204071
0.311859 0.365051 0.224335
0.319550 0.371399 0.222900
0.364258 0.554962 0.625153
0.390625 0.618927 0.686829
0.418671 0.623260 0.709961
0.349091 0.549438 0.628296
0.344971 0.555389 0.614288
0.434601 0.446167 0.553558
0.300842 0.357880 0.233643
0.321106 0.380737 0.251282
0.303406 0.354065 0.211670
0.297943 0.358948 0.226044
0.302063 0.347473 0.212891
0.311707 0.348053 0.204987
0.309021 0.366119 0.216797
0.320862 0.377991 0.221710
0.285217 0.342438 0.207245
0.278809 0.342621 0.207520
0.311859 0.365051 0.224335
0.324493 0.381561 0.243500
0.314087 0.376312 0.237335
0.305054 0.363403 0.239960
0.296631 0.352386 0.227264
0.281860 0.341644 0.214844
0.291138 0.357300 0.241699
0.289215 0.330963 0.194366
0.288544 0.343262 0.199585
0.305664 0.365295 0.224579
0.314880 0.380951 0.251587
0.279175 0.328491 0.217194
0.298645 0.346619 0.220642
0.302917 0.352173 0.226959
0.290802 0.323303 0.202881
0.281128 0.322723 0.210815
0.906616 0.380493 0.733734
0.910431 0.385773 0.739441
0.913208 0.397064 0.749756
0.893372 0.405670 0.750854
0.623108 0.263580 0.533844
0.501251 0.198395 0.423309
0.471252 0.196411 0.403625
0.448608 0.346619 0.487518
0.391083 0.585632 0.646484
0.417786 0.643005 0.708618
0.417328 0.638092 0.716248
0.369263 0.559021 0.623932
0.349213 0.342804 0.444733
0.613159 0.265106 0.523254
0.712616 0.244202 0.554352
0.748474 0.258423 0.560150
0.794952 0.264618 0.579895
0.802490 0.276154 0.608459
0.819794 0.286346 0.628998
0.831268 0.303986 0.637390
0.838715 0.314484 0.656464
0.850983 0.324371 0.668671
0.862305 0.340210 0.685760
0.869843 0.350769 0.696991
0.827301 0.327637 0.671997
0.778839 0.304901 0.638245
0.654236 0.252716 0.525818
0.574341 0.200684 0.456940
0.558380 0.177399 0.441010
0.460663 0.166199 0.374908
0.397034 0.338318 0.465851
0.400146 0.622070 0.692047
0.524261 0.175781 0.437469
0.497314 0.160736 0.399048
0.496246 0.135590 0.368927
0.535522 0.136078 0.399200
0.639191 0.254852 0.531555
0.405334 0.439270 0.519531
0.360840 0.547760 0.612030
0.382385 0.639374 0.708069
0.421082 0.650055 0.721497
0.391693 0.610809 0.680176
0.421722 0.540222 0.615875
0.640106 0.371735 0.626678
0.944061 0.432953 0.829376
0.932068 0.452728 0.794800
0.902863 0.433624 0.761505
0.905579 0.415497 0.770966
0.886719 0.418243 0.759430
0.890442 0.423523 0.764923
0.890442 0.423523 0.764923
0.894318 0.428864 0.762848
0.890503 0.423615 0.757141
0.894257 0.428772 0.770721
0.895233 0.422882 0.765961
0.899017 0.428223 0.763733
0.898010 0.434113 0.776367
0.895203 0.451996 0.782684
0.897064 0.469208 0.797821
0.895996 0.474976 0.817169
0.741180 0.392181 0.691681
0.448059 0.212250 0.427002
0.442749 0.181305 0.399292
0.303375 0.120605 0.276245
0.947083 0.415344 0.791809
0.549042 0.235931 0.487274
0.078735 0.056427 0.100800
0.398499 0.490051 0.566833
0.339020 0.570953 0.614136
0.364899 0.413330 0.528809
0.622009 0.302063 0.557007
0.879272 0.378693 0.715637
0.879211 0.407715 0.740143
0.870819 0.374115 0.701172
0.859467 0.358185 0.692047
0.849121 0.365479 0.687134
0.840698 0.360992 0.672638
0.832184 0.356354 0.666077
0.841614 0.354950 0.675751
0.854675 0.358765 0.698975
0.853760 0.364777 0.695831
0.855591 0.381897 0.718781
0.863129 0.392456 0.730164
0.855621 0.411102 0.727661
0.867859 0.420929 0.747833
0.735260 0.340851 0.638397
0.646057 0.272858 0.557587
0.612091 0.239441 0.527466
0.605164 0.221344 0.510040
0.509247 0.177979 0.426025
0.495117 0.141907 0.391205
0.533478 0.149139 0.409424
0.625214 0.250610 0.514923
0.427856 0.362091 0.467896
0.378784 0.611938 0.653778
0.349304 0.581207 0.661438
0.881317 0.337677 0.673737
0.889465 0.371033 0.744171
0.884766 0.401001 0.752136
0.904785 0.392517 0.735321
0.899994 0.393097 0.742340
0.895142 0.393585 0.757141
0.908478 0.397736 0.748871
0.914124 0.390991 0.752930
0.915070 0.385040 0.748260
0.920746 0.378296 0.752289
0.920746 0.378296 0.752289
0.921692 0.372345 0.747620
0.917847 0.366974 0.749725
0.917908 0.367065 0.741882
0.910370 0.356476 0.730652
0.902802 0.345886 0.719238
0.905701 0.357208 0.721832
0.913239 0.367798 0.733063
