res/luts/cool.CUBE
#Created by: Adobe Photoshop Export Color Lookup Plugin
TITLE "Cool"
#LUT size
LUT_3D_SIZE 5
#data domain
#LUT data points
DOMAIN_MIN 0.000000 0.000000 0.000000
DOMAIN_MAX 0.903226 0.903226 0.903226
0.000000 0.000000 0.000000
0.225800 0.000000 0.067688
0.451599 0.000000 0.135406
0.677429 0.000000 0.203094
0.903229 0.000000 0.270782
0.808258 0.359711 0.661407
0.745148 0.310028 0.600250
0.228577 0.308777 0.378998
0.284760 0.340546 0.222321
0.321594 0.389526 0.279907
0.330780 0.390106 0.271851
0.317932 0.384552 0.273376
0.327911 0.382416 0.235657
0.303406 0.354065 0.211670
0.303833 0.355927 0.196686
0.276184 0.329529 0.209869
0.327911 0.382416 0.235657
0.298401 0.360809 0.210724
0.288208 0.358307 0.234161
0.316101 0.370544 0.230743
0.270782 0.903229 0.000000
0.496613 0.903229 0.000000
0.722412 0.903229 0.000000
0.903229 0.858246 0.000000
0.903229 0.632446 0.000000
0.000000 0.067688 0.225800
0.158112 0.000000 0.225800
0.451599 0.000000 0.361206
0.677429 0.000000 0.428864
0.903229 0.000000 0.496613
0.162689 0.088196 0.170776
0.041107 0.039612 0.064148
0.294098 0.355316 0.204620
0.302673 0.366333 0.217072
0.317474 0.377136 0.229553
0.298645 0.346619 0.220642
0.248413 0.302185 0.179260
0.276611 0.331390 0.194885
0.312683 0.386597 0.258240
0.315552 0.368652 0.246124
0.316101 0.370544 0.230743
0.308594 0.380219 0.206940
0.322937 0.372192 0.215088
0.287354 0.353638 0.219971
0.319000 0.386383 0.257965
0.044983 0.903229 0.000000
0.400299 0.974670 0.154358
0.673676 0.974670 0.154358
0.947235 0.974670 0.154358
0.974670 0.728729 0.154358
0.000000 0.135406 0.451599
0.090393 0.000000 0.451599
0.316193 0.000000 0.451599
0.677429 0.000000 0.654785
0.903229 0.000000 0.722412
0.160278 0.149597 0.253479
0.302063 0.347473 0.212891
0.292389 0.363831 0.240540
0.313202 0.371582 0.223145
0.253662 0.312408 0.199249
0.317322 0.360138 0.209961
0.303711 0.356812 0.241180
0.325226 0.369263 0.238007
0.318268 0.381805 0.243774
0.325989 0.392212 0.256683
0.310059 0.356598 0.240936
0.324799 0.386200 0.257751
0.305664 0.365295 0.224579
0.286072 0.347076 0.221161
0.343201 0.387482 0.241608
0.000000 0.903229 0.180817
0.154358 0.974670 0.181793
0.567932 0.950867 0.403961
0.841370 0.950867 0.403961
0.950867 0.786896 0.403961
0.000000 0.203094 0.677429
0.022644 0.000000 0.677429
0.248566 0.000000 0.677429
0.474335 0.000000 0.677429
0.858246 0.000000 0.903229
0.286072 0.347076 0.221161
0.297150 0.354279 0.211914
0.300476 0.355103 0.204315
0.305664 0.365295 0.224579
0.311035 0.360352 0.210205
0.280884 0.336884 0.201050
0.318420 0.367615 0.253693
0.308441 0.364258 0.232208
0.283844 0.335846 0.208435
0.313629 0.360229 0.262695
0.294434 0.341156 0.214325
0.266876 0.330780 0.202759
0.312439 0.366974 0.209015
0.306396 0.369934 0.238831
0.301636 0.362579 0.247833
0.000000 0.903229 0.406616
0.154358 0.974670 0.455353
0.403961 0.950867 0.513458
0.735565 0.927032 0.653595
0.927032 0.845062 0.653595
0.000000 0.270782 0.903229
0.000000 0.044983 0.903229
0.180817 0.000000 0.903229
0.406616 0.000000 0.903229
0.632446 0.000000 0.903229
0.308441 0.364258 0.232208
0.311035 0.360352 0.210205
0.295807 0.347717 0.213135
0.315308 0.365906 0.216522
0.310333 0.372650 0.215637
0.296326 0.366547 0.217346
0.305054 0.363403 0.239960
0.307648 0.376495 0.237610
0.335022 0.388702 0.234222
0.319000 0.386383 0.257965
0.292786 0.348755 0.205811
0.286774 0.334778 0.215759
0.273712 0.333374 0.231598
0.292877 0.365692 0.225159
0.288544 0.343262 0.199585
0.000000 0.903229 0.632446
0.154358 0.974670 0.728729
0.403961 0.950867 0.786896
0.653595 0.927032 0.845062
0.903229 0.903229 0.903229
