res/luts/cool.CUBE
#Created by: Adobe Photoshop Export Color Lookup Plugin
TITLE "Cool"
#LUT size
LUT_3D_SIZE 8
#data domain
#LUT data points
DOMAIN_MIN 0.000000 0.000000 0.000000
DOMAIN_MAX 0.903226 0.903226 0.903226
0.000000 0.000000 0.000000
0.129028 0.000000 0.038696
0.258057 0.000000 0.077362
0.387085 0.000000 0.116058
0.516144 0.000000 0.154755
0.645172 0.000000 0.193420
0.774200 0.000000 0.232117
0.903229 0.000000 0.270782
0.038696 0.129028 0.000000
0.129028 0.090332 0.000000
0.258057 0.051666 0.000000
0.387085 0.012939 0.000000
0.516144 0.000000 0.025696
0.645172 0.000000 0.064423
0.774200 0.000000 0.103027
0.903229 0.000000 0.141785
0.306335 0.352997 0.219177
0.285217 0.342438 0.207245
0.314209 0.362091 0.247314
0.321106 0.380737 0.251282
0.310211 0.342407 0.250916
0.315308 0.365906 0.216522
0.289459 0.347931 0.213409
0.282166 0.343475 0.199860
0.332703 0.380310 0.250824
0.308197 0.378357 0.222229
0.319397 0.394684 0.286652
0.290741 0.354492 0.212219
0.324493 0.364624 0.223816
0.314819 0.364014 0.231934
0.306396 0.369934 0.238831
0.297150 0.354279 0.211914
0.612762 0.903992 0.989288
0.824768 1.000000 0.947479
0.856201 1.000000 0.956879
0.875824 1.000000 0.962769
0.887573 1.000000 0.966309
0.273590 0.452911 0.513794
0.094086 0.207947 0.255127
0.263672 0.314850 0.176331
0.867950 1.000000 0.960419
0.933777 1.000000 0.980133
0.933777 1.000000 0.980133
0.412781 0.639008 0.709869
0.754089 0.992493 1.000000
0.437195 0.671478 0.744080
0.075256 0.166321 0.204071
0.173737 0.318542 0.372711
0.906616 0.380493 0.733734
0.623108 0.263580 0.533844
0.391083 0.585632 0.646484
0.349213 0.342804 0.444733
0.794952 0.264618 0.579895
0.838715 0.314484 0.656464
0.827301 0.327637 0.671997
0.558380 0.177399 0.441010
0.270782 0.903229 0.000000
0.399780 0.903229 0.000000
0.528809 0.903229 0.000000
0.657806 0.903229 0.000000
0.787018 0.903229 0.000000
0.903229 0.890442 0.000000
0.903229 0.761444 0.000000
0.903229 0.632446 0.000000
0.000000 0.038696 0.129028
0.090332 0.000000 0.129028
0.258057 0.000000 0.206390
0.387085 0.000000 0.245056
0.516144 0.000000 0.283783
0.645172 0.000000 0.322418
0.774200 0.000000 0.361206
0.903229 0.000000 0.399780
0.000000 0.129028 0.090332
0.129028 0.129028 0.129028
0.271667 0.115417 0.162262
0.414307 0.101807 0.195496
0.556976 0.088196 0.228729
0.699615 0.074585 0.261963
0.842224 0.060974 0.295197
0.984863 0.047363 0.328430
0.287354 0.353638 0.219971
0.303497 0.371002 0.231262
0.323914 0.362732 0.239197
0.305664 0.365295 0.224579
0.316101 0.370544 0.230743
0.304291 0.358704 0.225769
0.306335 0.352997 0.219177
0.291504 0.342224 0.206970
0.308746 0.367004 0.261780
0.299500 0.351318 0.234833
0.303406 0.354065 0.211670
0.313416 0.357391 0.233124
0.309021 0.366119 0.216797
0.316101 0.370544 0.230743
0.309204 0.351929 0.226715
0.268005 0.320374 0.182526
0.809082 1.000000 0.960388
0.875824 1.000000 0.962769
0.933777 1.000000 0.980133
0.871918 1.000000 0.961609
0.805115 1.000000 0.963745
0.096741 0.213867 0.262421
0.630035 0.916351 1.000000
0.056458 0.124786 0.153107
0.754089 0.992493 1.000000
0.852264 1.000000 0.955719
0.933777 1.000000 0.980133
0.933777 1.000000 0.980133
0.828705 1.000000 0.948639
0.553955 0.826355 0.907501
0.155457 0.293884 0.346832
0.233185 0.398590 0.456726
0.903870 0.369232 0.723480
0.916016 0.379059 0.743500
0.487885 0.187469 0.418640
0.388092 0.591980 0.675079
0.725250 0.255371 0.550293
0.840698 0.302643 0.639191
0.867920 0.333527 0.689819
0.848053 0.342133 0.690826
0.141785 0.903229 0.000000
0.328430 0.984863 0.047363
0.484772 0.984863 0.047363
0.640869 0.984863 0.047363
0.797180 0.984863 0.047363
0.953522 0.984863 0.047363
0.984863 0.860138 0.047363
0.984863 0.703796 0.047363
0.000000 0.077362 0.258057
0.051666 0.000000 0.258057
0.180695 0.000000 0.258057
0.387085 0.000000 0.374146
0.516144 0.000000 0.412811
0.645172 0.000000 0.451447
0.774200 0.000000 0.490112
0.903229 0.000000 0.528809
0.678497 0.281158 0.557343
0.344269 0.518585 0.588715
0.884735 0.400909 0.760010
0.887665 0.383118 0.737885
0.902832 0.375153 0.735992
0.898193 0.375977 0.719330
0.904785 0.363281 0.718658
0.901093 0.387299 0.721832
0.304291 0.358704 0.225769
0.291504 0.342224 0.206970
0.305054 0.363403 0.239960
0.295044 0.359955 0.218506
0.299164 0.348511 0.205536
0.286072 0.347076 0.221161
0.303406 0.354065 0.211670
0.301636 0.362579 0.247833
0.312714 0.369720 0.238525
0.278809 0.342621 0.207520
0.314880 0.380951 0.251587
0.295288 0.345825 0.228455
0.298157 0.343872 0.191742
0.288147 0.341400 0.214569
0.309265 0.368866 0.246399
0.289459 0.347931 0.213409
0.860107 1.000000 0.958069
0.933777 1.000000 0.980133
0.933777 1.000000 0.980133
0.828705 1.000000 0.948639
0.773712 1.000000 0.990662
0.457336 0.698181 0.772217
0.824768 1.000000 0.947479
0.051056 0.112885 0.138519
0.867950 1.000000 0.960419
0.933777 1.000000 0.980133
0.933777 1.000000 0.980133
0.895264 1.000000 0.968597
0.730194 0.971954 1.000000
0.852264 1.000000 0.955719
0.040314 0.089142 0.109375
0.048370 0.106964 0.131195
0.908508 0.368500 0.732117
0.902893 0.375244 0.728088
0.922577 0.395538 0.767395
0.516144 0.228058 0.453064
0.399078 0.591980 0.666016
0.803711 0.237366 0.586090
0.861328 0.316956 0.673676
0.884918 0.342743 0.702911
0.012787 0.903229 0.000000
0.172119 0.984863 0.047363
0.424225 0.971252 0.190002
0.580444 0.971252 0.190002
0.736847 0.971252 0.190002
0.893066 0.971252 0.190002
0.971252 0.893250 0.190002
0.971252 0.737030 0.190002
0.000000 0.116058 0.387085
0.012939 0.000000 0.387085
0.142029 0.000000 0.387085
0.271027 0.000000 0.387085
0.490448 0.000000 0.516144
0.645172 0.000000 0.580444
0.774200 0.000000 0.619202
0.903229 0.000000 0.657806
0.042786 0.030029 0.058044
0.488464 0.384735 0.551941
0.871643 0.397064 0.736786
0.896118 0.387665 0.752380
0.903809 0.369171 0.731262
0.904724 0.363220 0.726501
0.914185 0.361847 0.728363
0.076660 0.042755 0.084045
0.326599 0.375854 0.236816
0.273560 0.332428 0.187500
0.299164 0.348511 0.205536
0.302185 0.364441 0.232452
0.302460 0.349335 0.197906
0.303406 0.354065 0.211670
0.311035 0.360352 0.210205
0.284576 0.339600 0.178467
0.307861 0.345367 0.227936
0.324493 0.364624 0.223816
0.292786 0.348755 0.205811
0.322449 0.387238 0.250092
0.299713 0.367340 0.209595
0.301392 0.359772 0.218262
0.311707 0.348053 0.204987
0.301636 0.362579 0.247833
0.906799 1.000000 0.972046
0.933777 1.000000 0.980133
0.879761 1.000000 0.963959
0.797272 1.000000 0.970490
0.832642 1.000000 0.949829
0.362152 0.571350 0.638550
0.750153 0.989136 1.000000
0.048370 0.106964 0.131195
0.809082 1.000000 0.960388
0.933777 1.000000 0.980133
0.899109 1.000000 0.969757
0.867950 1.000000 0.960419
0.867950 1.000000 0.960419
0.933777 1.000000 0.980133
0.856201 1.000000 0.956879
0.045685 0.101013 0.123932
0.912354 0.373871 0.730011
0.908447 0.368378 0.740082
0.902832 0.375153 0.735992
0.928131 0.417969 0.796112
0.307159 0.129913 0.298340
0.316132 0.426086 0.508179
0.853027 0.281372 0.651367
0.878296 0.326111 0.694824
0.000000 0.903229 0.116211
0.047363 0.984863 0.078735
0.268005 0.971252 0.190002
0.520020 0.957672 0.332642
0.676300 0.957672 0.332642
0.832550 0.957672 0.332642
0.957672 0.926544 0.332642
0.957672 0.770294 0.332642
0.000000 0.154755 0.516144
0.000000 0.025696 0.516144
0.103333 0.000000 0.516144
0.232361 0.000000 0.516144
0.361389 0.000000 0.516144
0.580750 0.000000 0.645172
0.774200 0.000000 0.748291
0.903229 0.000000 0.787018
0.342590 0.539917 0.594543
0.876465 0.425751 0.738586
0.885742 0.395020 0.747375
0.893433 0.376587 0.726227
0.903748 0.369080 0.739136
0.905701 0.357208 0.721832
0.731415 0.305359 0.616486
0.307953 0.484863 0.562195
0.303711 0.356812 0.241180
0.318970 0.369476 0.238281
0.317932 0.384552 0.273376
0.313202 0.371582 0.223145
0.311035 0.360352 0.210205
0.306885 0.371796 0.223419
0.333710 0.382202 0.235413
0.300018 0.353241 0.219452
0.307129 0.357635 0.233368
0.306396 0.369934 0.238831
0.284180 0.337738 0.193451
0.316101 0.370544 0.230743
0.273743 0.349335 0.206604
0.308441 0.364258 0.232208
0.321594 0.365662 0.216248
0.281219 0.338776 0.186066
0.933777 1.000000 0.980133
0.848328 1.000000 0.954529
0.933777 1.000000 0.980133
0.879761 1.000000 0.963959
0.820831 1.000000 0.950317
0.537842 0.805023 0.884949
0.290497 0.475494 0.537567
0.056458 0.124786 0.153107
0.832642 1.000000 0.949829
0.933777 1.000000 0.980133
0.933777 1.000000 0.980133
0.867950 1.000000 0.960419
0.856201 1.000000 0.956879
0.109680 0.232300 0.282196
0.933777 1.000000 0.980133
0.309021 0.366119 0.216797
0.767242 0.347717 0.670258
0.899048 0.340637 0.713623
0.898071 0.375824 0.734985
0.922638 0.395630 0.759491
0.664551 0.308502 0.591003
0.393494 0.423859 0.521912
0.610748 0.341064 0.591522
0.866150 0.316376 0.666840
0.000000 0.903229 0.245422
0.047363 0.984863 0.235046
0.190002 0.971252 0.268402
0.363770 0.957672 0.332642
0.615845 0.944061 0.475311
0.772064 0.944061 0.475311
0.928375 0.944061 0.475311
0.944061 0.803528 0.475311
0.000000 0.193420 0.645172
0.000000 0.064423 0.645172
0.064575 0.000000 0.645172
0.193573 0.000000 0.645172
0.322754 0.000000 0.645172
0.451752 0.000000 0.645172
0.671173 0.000000 0.774200
0.890442 0.000000 0.903229
0.843018 0.429871 0.779358
0.879150 0.407654 0.748047
0.895264 0.393799 0.741364
0.902832 0.375153 0.735992
0.899994 0.363892 0.725647
0.907593 0.374542 0.729034
0.038452 0.030029 0.058044
0.768219 0.341797 0.665466
0.305054 0.363403 0.239960
0.298401 0.360809 0.210724
0.311920 0.381958 0.244019
0.304291 0.358704 0.225769
0.300476 0.355103 0.204315
0.288544 0.343262 0.199585
0.303406 0.354065 0.211670
0.304749 0.360596 0.210480
0.290131 0.335632 0.208160
0.316101 0.370544 0.230743
0.314819 0.364014 0.231934
0.301575 0.345581 0.228180
0.294098 0.355316 0.204620
0.299469 0.350403 0.190521
0.306030 0.367157 0.209290
0.308411 0.347229 0.212616
0.765869 1.000000 0.997437
0.933777 1.000000 0.980133
0.933777 1.000000 0.980133
0.933777 1.000000 0.980133
0.933777 1.000000 0.980133
0.836548 1.000000 0.950989
0.150848 0.287720 0.340363
0.332642 0.531860 0.596985
0.493561 0.746216 0.822937
0.933777 1.000000 0.980133
0.836548 1.000000 0.950989
0.906799 1.000000 0.972046
0.828705 1.000000 0.948639
0.109680 0.232300 0.282196
0.114227 0.238403 0.288605
0.300018 0.353241 0.219452
0.444580 0.694611 0.754456
0.918854 0.390289 0.753815
0.899994 0.393097 0.742340
0.890625 0.394531 0.732574
0.907562 0.403687 0.753662
0.516083 0.227936 0.461548
0.341095 0.543152 0.608856
0.817810 0.299561 0.630035
0.000000 0.903229 0.374420
0.047363 0.984863 0.391388
0.190002 0.971252 0.424622
0.332642 0.957672 0.457764
0.475311 0.944061 0.490997
0.711639 0.930450 0.617950
0.867889 0.930450 0.617950
0.930450 0.836761 0.617950
0.000000 0.232117 0.774200
0.000000 0.103027 0.774200
0.025909 0.000000 0.774200
0.154999 0.000000 0.774200
0.284088 0.000000 0.774200
0.412994 0.000000 0.774200
0.542084 0.000000 0.774200
0.761444 0.000000 0.903229
0.870697 0.432251 0.750275
0.884766 0.401001 0.752136
0.893372 0.376495 0.734131
0.898132 0.375885 0.727142
0.894470 0.370667 0.713654
0.059021 0.038818 0.072296
0.383118 0.360901 0.492004
0.819672 0.375244 0.701935
0.309204 0.351929 0.226715
0.318268 0.364868 0.224060
0.268951 0.325043 0.196381
0.300018 0.353241 0.219452
0.322449 0.387238 0.250092
0.317719 0.362000 0.194977
0.313202 0.371582 0.223145
0.329224 0.371979 0.214813
0.299164 0.348511 0.205536
0.291626 0.359131 0.226318
0.287781 0.355530 0.204865
0.308044 0.361420 0.202881
0.292389 0.346863 0.220886
0.333435 0.377502 0.221191
0.324310 0.378784 0.213898
0.302673 0.366333 0.217072
0.816925 1.000000 0.953644
0.933777 1.000000 0.980133
0.933777 1.000000 0.980133
0.933777 1.000000 0.980133
0.902985 1.000000 0.970917
0.875824 1.000000 0.962769
0.061829 0.136688 0.167694
0.105103 0.226105 0.275696
0.059143 0.130676 0.160370
0.056458 0.124786 0.153107
0.316132 0.387451 0.250397
0.272461 0.342834 0.207764
0.781555 1.000000 0.983948
0.056458 0.124786 0.153107
0.303406 0.354065 0.211670
0.314087 0.376312 0.237335
0.393005 0.634338 0.706604
0.384766 0.557953 0.621155
0.898132 0.375885 0.727142
0.884888 0.401154 0.736328
0.901886 0.410400 0.749512
0.906464 0.438660 0.790771
0.476349 0.195465 0.421753
0.361725 0.566345 0.646118
0.000000 0.903229 0.503448
0.047363 0.984863 0.547485
0.190002 0.971252 0.580811
0.332642 0.957672 0.614014
0.475311 0.944061 0.647308
0.617950 0.930450 0.680511
0.807434 0.916840 0.760590
0.916840 0.869995 0.760590
0.000000 0.270782 0.903229
0.000000 0.141785 0.903229
0.000000 0.012787 0.903229
0.116211 0.000000 0.903229
0.245422 0.000000 0.903229
0.374420 0.000000 0.903229
0.503448 0.000000 0.903229
0.632446 0.000000 0.903229
0.874359 0.408203 0.754974
0.882080 0.389923 0.726013
0.892456 0.382507 0.730988
0.906555 0.380402 0.741608
0.746979 0.327637 0.622986
0.353394 0.566650 0.626190
0.851776 0.405701 0.737762
0.822479 0.386475 0.712311
0.303711 0.356812 0.241180
0.314087 0.376312 0.237335
0.301392 0.359772 0.218262
0.320312 0.376068 0.237091
0.291046 0.340332 0.222076
0.300476 0.355103 0.204315
0.316132 0.387451 0.250397
0.311920 0.381958 0.244019
0.304962 0.346436 0.220367
0.280060 0.349121 0.206329
0.318268 0.381805 0.243774
0.314423 0.361176 0.202606
0.314819 0.364014 0.231934
0.307678 0.359558 0.217987
0.296326 0.366547 0.217346
0.333435 0.377502 0.221191
0.820831 1.000000 0.950317
0.933777 1.000000 0.980133
0.933777 1.000000 0.980133
0.852264 1.000000 0.955719
0.933777 1.000000 0.980133
0.612762 0.903992 0.989288
0.828705 1.000000 0.948639
0.056458 0.124786 0.153107
0.316681 0.372437 0.215332
0.333710 0.382202 0.235413
0.308044 0.361420 0.202881
0.289459 0.347931 0.213409
0.341095 0.543152 0.608856
0.293457 0.336456 0.200531
0.313202 0.371582 0.223145
0.297943 0.358948 0.226044
0.520630 0.138489 0.378998
0.383484 0.631287 0.701355
0.564972 0.369171 0.576904
0.903687 0.398315 0.755890
0.883057 0.413147 0.737946
0.900940 0.416351 0.754242
0.899811 0.480377 0.814911
0.282654 0.112946 0.259705
0.000000 0.903229 0.632446
0.047363 0.984863 0.703796
0.190002 0.971252 0.737030
0.332642 0.957672 0.770294
0.475311 0.944061 0.803528
0.617950 0.930450 0.836761
0.760590 0.916840 0.869995
0.903229 0.903229 0.903229
