res/luts/untitled.CUBE
#Created by: Adobe Photoshop Export Color Lookup Plugin
TITLE "Custom"
#LUT size
LUT_3D_SIZE 5
#data domain
#LUT data points
DOMAIN_MIN 0.000000 0.000000 0.000000
DOMAIN_MAX 0.903226 0.903226 0.903226
0.000000 0.007141 0.023956
0.012238 0.015808 0.058472
0.035400 0.031219 0.100861
0.074036 0.049255 0.138397
0.100372 0.073059 0.172638
0.084930 0.098236 0.190216
0.078522 0.089050 0.175964
0.021393 0.047333 0.101135
0.019562 0.037811 0.087708
0.026489 0.047760 0.098969
0.026581 0.047272 0.098694
0.025726 0.046661 0.097717
0.024109 0.043030 0.093475
0.020416 0.038147 0.087891
0.019501 0.036774 0.085541
0.017822 0.035614 0.084747
0.024109 0.043030 0.093475
0.020874 0.038849 0.087891
0.021606 0.040741 0.090332
0.022797 0.041443 0.091766
0.083893 0.132172 0.141113
0.102905 0.132263 0.141052
0.111115 0.121613 0.138306
0.112091 0.105133 0.133423
0.113953 0.089233 0.128662
0.001587 0.024506 0.066833
0.004974 0.014923 0.064392
0.025513 0.031830 0.111694
0.067139 0.051849 0.161774
0.093994 0.075043 0.193787
0.009613 0.022491 0.065582
0.000244 0.010773 0.037323
0.020020 0.037750 0.086426
0.021729 0.039978 0.089294
0.023041 0.041809 0.091766
0.020508 0.038422 0.088806
0.015350 0.032196 0.077026
0.017212 0.034546 0.082428
0.025208 0.045654 0.095734
0.023529 0.042816 0.093750
0.022797 0.041443 0.091766
0.023071 0.040985 0.089508
0.022369 0.040222 0.090271
0.020599 0.039001 0.088257
0.024963 0.045288 0.095734
0.063141 0.132202 0.138306
0.101440 0.155304 0.185608
0.122681 0.152527 0.182068
0.126465 0.134766 0.179382
0.122864 0.116943 0.176514
0.000000 0.053986 0.116302
0.000000 0.037445 0.113708
0.004120 0.033966 0.112427
0.041412 0.050873 0.154907
0.069580 0.071747 0.202423
0.012543 0.030853 0.080811
0.020203 0.037781 0.087891
0.022369 0.041840 0.091553
0.022278 0.040710 0.090546
0.016113 0.033783 0.080780
0.021393 0.038727 0.088989
0.022247 0.041229 0.092041
0.023651 0.042328 0.093475
0.023987 0.043549 0.093750
0.025513 0.045776 0.096222
0.022583 0.041382 0.092529
0.025299 0.045410 0.096222
0.021729 0.040253 0.090057
0.019806 0.038208 0.087708
0.025482 0.044373 0.095703
0.039398 0.135498 0.140594
0.074799 0.155945 0.182007
0.116058 0.178131 0.233887
0.137482 0.171143 0.231537
0.139343 0.146454 0.222595
0.000000 0.083435 0.160431
0.002930 0.067108 0.157806
0.003326 0.047272 0.152924
0.015961 0.049896 0.150818
0.038696 0.069641 0.202057
0.019806 0.038208 0.087708
0.020081 0.038025 0.087341
0.019806 0.037415 0.086426
0.021729 0.040253 0.090057
0.021027 0.038635 0.088440
0.017761 0.035370 0.083893
0.024078 0.043579 0.094971
0.022247 0.040985 0.091278
0.018402 0.036102 0.085327
0.024048 0.043854 0.095734
0.019623 0.037323 0.087341
0.017395 0.035217 0.083344
0.021240 0.038971 0.088440
0.022705 0.041962 0.092041
0.022675 0.042236 0.092773
0.021820 0.135742 0.147034
0.042572 0.155945 0.182892
0.079895 0.179291 0.233154
0.146240 0.215942 0.308197
0.149261 0.194702 0.302734
0.000000 0.107727 0.209930
0.000000 0.092743 0.209686
0.000000 0.077026 0.204620
0.002106 0.066162 0.202057
0.013184 0.066162 0.199310
0.022247 0.040985 0.091278
0.021027 0.038635 0.088440
0.019867 0.037659 0.087341
0.021820 0.039734 0.089783
0.022278 0.040436 0.089783
0.021973 0.040344 0.089294
0.022461 0.041626 0.092041
0.023468 0.042816 0.092529
0.024658 0.043518 0.093964
0.024963 0.045288 0.095734
0.019226 0.036926 0.085876
0.019073 0.036865 0.086792
0.019287 0.037964 0.088043
0.022186 0.040955 0.090057
0.018341 0.035828 0.084442
0.013519 0.132965 0.163818
0.027496 0.156158 0.201355
0.046936 0.182465 0.252289
0.091370 0.216705 0.316803
0.173523 0.272858 0.428345
