res/luts/untitled.CUBE
#Created by: Adobe Photoshop Export Color Lookup Plugin
TITLE "Custom"
#LUT size
LUT_3D_SIZE 32
#data domain
DOMAIN_MIN 0.0 0.0 0.0
DOMAIN_MAX 1.0 1.0 1.0
#LUT data points
0.000000 0.007141 0.023956
0.000336 0.007996 0.028351
0.000702 0.008881 0.032837
0.001770 0.010101 0.038025
0.004486 0.011108 0.042816
0.007202 0.012146 0.047638
0.009735 0.013855 0.052948
0.012238 0.015808 0.058472
0.014771 0.017761 0.064026
0.017334 0.019318 0.069580
0.019897 0.020599 0.075226
0.023071 0.022736 0.081085
0.027100 0.025543 0.087646
0.031189 0.028381 0.094269
0.035400 0.031219 0.100861
0.041748 0.033386 0.105438
0.048218 0.035522 0.110046
0.054260 0.037506 0.115326
0.060303 0.039948 0.121307
0.066406 0.042786 0.127380
0.070129 0.045624 0.132965
0.074036 0.049255 0.138397
0.078217 0.053070 0.143890
0.082611 0.056976 0.149384
0.087036 0.060944 0.154755
0.090546 0.064178 0.158936
0.093933 0.067078 0.163696
0.097565 0.070038 0.168610
0.100372 0.073059 0.172638
0.106934 0.076111 0.179352
0.114014 0.078613 0.186340
0.121216 0.080292 0.193115
0.000641 0.009003 0.027863
0.000977 0.008362 0.027222
0.001709 0.008881 0.030487
0.002808 0.010101 0.035675
0.004822 0.011475 0.041107
0.007568 0.012482 0.045929
0.010071 0.014191 0.051208
0.012604 0.016144 0.056702
0.015106 0.018127 0.062225
0.017670 0.019653 0.067810
0.020264 0.020966 0.073425
0.023071 0.022369 0.079254
0.027100 0.025177 0.085785
0.031189 0.028015 0.092407
0.035400 0.030853 0.098969
0.041748 0.032990 0.103546
0.048218 0.035156 0.108124
0.054688 0.037354 0.112762
0.061096 0.039581 0.117828
0.067169 0.042389 0.123901
0.070923 0.045227 0.129425
0.074829 0.048859 0.134827
0.079010 0.052673 0.140259
0.083435 0.056580 0.145782
0.087982 0.060547 0.151672
0.091400 0.063354 0.156433
0.094788 0.066254 0.161163
0.098419 0.069183 0.166016
0.101288 0.072174 0.169983
0.107880 0.075195 0.176605
0.115295 0.078217 0.183655
0.122681 0.080292 0.190674
0.001312 0.010895 0.031799
0.002014 0.010590 0.031494
0.002014 0.009583 0.030487
0.003754 0.010162 0.033508
0.005463 0.011627 0.039124
0.007904 0.012817 0.044220
0.010437 0.014557 0.049500
0.012939 0.016510 0.054962
0.015472 0.018463 0.060486
0.018036 0.020020 0.066040
0.020630 0.021301 0.071655
0.023407 0.022675 0.077423
0.027100 0.024811 0.083954
0.031189 0.027649 0.090546
0.035400 0.030487 0.097076
0.041748 0.032623 0.101624
0.048218 0.034790 0.106201
0.054688 0.036957 0.110840
0.061279 0.039154 0.115479
0.067932 0.041992 0.120453
0.071716 0.044830 0.125885
0.075623 0.048462 0.131256
0.079742 0.052277 0.136871
0.083954 0.056152 0.143005
0.088379 0.060150 0.149261
0.092224 0.062531 0.153961
0.095642 0.065430 0.158691
0.099304 0.068359 0.163483
0.102173 0.071289 0.167358
0.108795 0.074310 0.173889
0.116241 0.077301 0.180847
0.124084 0.079987 0.187408
0.001984 0.013885 0.035400
0.003998 0.013519 0.035400
0.003784 0.012207 0.035400
0.003754 0.011169 0.034515
0.006073 0.012054 0.038086
0.008240 0.013153 0.042511
0.010773 0.014893 0.047791
0.013306 0.016846 0.053223
0.015808 0.018799 0.058746
0.018372 0.020355 0.064270
0.020996 0.021667 0.069855
0.023773 0.023041 0.075653
0.027222 0.024750 0.082123
0.031189 0.027283 0.088684
0.035400 0.030090 0.095215
0.041748 0.032257 0.099762
0.048218 0.034393 0.104309
0.054688 0.036591 0.108887
0.061279 0.038788 0.113525
0.068237 0.041290 0.117859
0.072418 0.044556 0.122742
0.076141 0.048065 0.128510
0.080139 0.051880 0.134491
0.084351 0.055756 0.140625
0.088776 0.059753 0.146851
0.092682 0.062103 0.151520
0.096497 0.064606 0.156189
0.100159 0.067535 0.160980
0.103058 0.070465 0.164795
0.109680 0.073425 0.171234
0.117157 0.076416 0.178131
0.125153 0.079163 0.184418
0.004211 0.017242 0.038788
0.006256 0.016876 0.038788
0.006866 0.015900 0.038788
0.006531 0.014526 0.038788
0.006195 0.013153 0.038788
0.008636 0.014130 0.042175
0.011108 0.015350 0.046265
0.013641 0.017181 0.051514
0.016174 0.019165 0.057007
0.018738 0.020721 0.062500
0.021332 0.022034 0.068085
0.024109 0.023407 0.073853
0.027588 0.025116 0.080322
0.031189 0.026917 0.086853
0.035400 0.029724 0.093353
0.041748 0.031891 0.097870
0.048218 0.034027 0.102417
0.054688 0.036194 0.106995
0.061279 0.038391 0.111481
0.068237 0.040894 0.115662
0.073212 0.044952 0.120422
0.076782 0.048187 0.126190
0.080536 0.051483 0.132141
0.084747 0.055359 0.138245
0.089172 0.059326 0.144440
0.093079 0.061707 0.149109
0.097168 0.063965 0.153748
0.100983 0.066711 0.158478
0.103912 0.069611 0.162262
0.110565 0.072571 0.168640
0.118073 0.075531 0.175446
0.125824 0.078491 0.181366
0.092773 0.107239 0.206207
0.092499 0.106628 0.205414
0.092621 0.106628 0.205017
0.093475 0.106903 0.205994
0.092377 0.106049 0.204254
0.093475 0.106903 0.205994
0.094055 0.106598 0.206116
0.094910 0.106873 0.207092
0.094788 0.106873 0.207489
0.097595 0.108307 0.211212
0.098877 0.109222 0.212585
0.096741 0.108032 0.210205
0.093170 0.105408 0.205719
0.081512 0.094147 0.184357
0.029114 0.046844 0.109253
0.000610 0.010986 0.038849
0.026031 0.048584 0.106171
0.040955 0.075958 0.134583
0.043365 0.074890 0.136383
0.059021 0.073456 0.147400
0.088470 0.103485 0.197662
0.090363 0.106995 0.204529
0.085266 0.100739 0.195557
0.085663 0.101501 0.194733
0.085541 0.101318 0.195404
0.085114 0.100464 0.194336
0.085571 0.100952 0.194153
0.086182 0.101746 0.194885
0.086670 0.102997 0.196899
0.086823 0.103271 0.198151
0.087219 0.103546 0.198700
0.082520 0.096375 0.188568
0.079315 0.090393 0.177338
0.082367 0.095062 0.186127
0.081635 0.094849 0.184601
0.081970 0.095062 0.185181
0.080322 0.092560 0.180664
0.079865 0.091736 0.181183
0.080200 0.091980 0.181732
0.079010 0.090668 0.179413
0.076782 0.087738 0.174194
0.071228 0.081360 0.163452
0.069061 0.079041 0.158783
0.062408 0.072937 0.150177
0.051208 0.063324 0.135223
0.046814 0.059082 0.129730
0.039032 0.052887 0.119568
0.033752 0.051147 0.115479
0.056152 0.075714 0.148499
0.051727 0.085999 0.152863
0.053925 0.094482 0.163300
0.046204 0.084625 0.148590
0.050507 0.080017 0.146515
0.078583 0.092102 0.180176
0.081146 0.091095 0.180817
0.080139 0.089478 0.178497
0.078979 0.088409 0.177521
0.077454 0.085175 0.173370
0.078644 0.087616 0.176025
0.080444 0.090576 0.179688
0.083893 0.094727 0.186737
0.081635 0.092468 0.183014
0.078735 0.088745 0.175934
0.075836 0.086121 0.170898
0.084930 0.098236 0.190216
0.082703 0.095062 0.185303
0.076385 0.087219 0.171783
0.075500 0.085571 0.170624
0.081451 0.091919 0.182404
0.082336 0.092987 0.184174
0.077911 0.087952 0.175507
0.078522 0.089050 0.175964
0.079193 0.090118 0.178070
0.081055 0.092499 0.182465
0.079529 0.090912 0.179626
0.078033 0.089600 0.178070
0.006287 0.017731 0.055420
0.000214 0.010651 0.037537
0.021393 0.047333 0.101135
0.043365 0.071259 0.132965
0.021942 0.041138 0.091553
0.022583 0.041077 0.091766
0.022278 0.040710 0.090546
0.022278 0.040710 0.090546
0.021423 0.040131 0.089569
0.019562 0.037811 0.087708
0.021088 0.040009 0.089081
0.021179 0.039764 0.089569
0.020325 0.038391 0.087341
0.021179 0.039490 0.088806
0.018555 0.036957 0.085693
0.018402 0.036102 0.085327
0.026489 0.047760 0.098969
0.023651 0.042328 0.093475
0.021576 0.039642 0.090546
0.020630 0.039276 0.089081
0.021057 0.038879 0.089294
0.021484 0.040131 0.090790
0.022797 0.041443 0.091766
0.017548 0.034790 0.082977
0.018646 0.036438 0.085327
0.019440 0.037292 0.085876
0.020630 0.039276 0.089081
0.024841 0.044708 0.096222
0.023315 0.042480 0.093750
0.023773 0.043182 0.093750
0.022675 0.040588 0.091492
0.022461 0.041626 0.092041
0.024536 0.044281 0.094971
0.022919 0.040955 0.091492
0.022034 0.040375 0.090546
0.021912 0.039764 0.091003
0.022644 0.041412 0.093750
0.020844 0.038544 0.089294
0.021484 0.039886 0.090057
0.020081 0.038025 0.087341
0.021820 0.039734 0.089783
0.021729 0.039978 0.089294
0.021179 0.039764 0.089569
0.019501 0.037567 0.086792
0.019501 0.037567 0.086792
0.021729 0.040497 0.090790
0.022766 0.041992 0.093262
0.018127 0.035461 0.084442
0.018555 0.036163 0.084442
0.018799 0.036530 0.084442
0.017761 0.035370 0.083893
0.018127 0.035461 0.084442
0.019623 0.037323 0.087341
0.021484 0.039886 0.090057
0.022797 0.041443 0.091766
0.021729 0.040253 0.090057
0.024078 0.043304 0.094238
0.024536 0.044037 0.094238
0.022034 0.040375 0.090546
0.022156 0.041199 0.090790
0.022247 0.040985 0.091278
0.023041 0.041809 0.091766
0.023041 0.041809 0.091766
0.022522 0.040802 0.089783
0.021729 0.039978 0.089294
0.020599 0.038239 0.087006
0.020020 0.037750 0.086426
0.019348 0.036682 0.086426
0.021820 0.040009 0.090546
0.023773 0.042908 0.092987
0.020660 0.038483 0.087891
0.020538 0.038727 0.087341
0.022705 0.041687 0.091278
0.021942 0.040863 0.090790
0.021484 0.039886 0.090057
0.017853 0.034882 0.083527
0.021240 0.038971 0.088440
0.024536 0.044037 0.094238
0.025299 0.045135 0.095459
0.021271 0.039246 0.089294
0.019012 0.036591 0.085876
0.021729 0.040497 0.090790
0.024445 0.044250 0.093750
0.023682 0.043427 0.093262
0.021606 0.039124 0.088989
0.023041 0.041809 0.091766
0.020721 0.037994 0.087555
0.021515 0.039612 0.089294
0.020355 0.037872 0.087006
0.022797 0.041443 0.091766
0.021606 0.039124 0.088989
0.019806 0.037415 0.086426
0.021729 0.040253 0.090057
0.019623 0.037323 0.087341
0.021362 0.039276 0.090546
0.018250 0.035248 0.084991
0.020142 0.037506 0.087006
0.018463 0.035583 0.084991
0.023132 0.041565 0.092255
0.017120 0.033997 0.081543
0.018127 0.034424 0.083191
0.023895 0.042694 0.093475
0.021515 0.039612 0.089294
0.021484 0.039886 0.090057
0.019562 0.037048 0.086426
0.022034 0.040375 0.090546
0.020721 0.039032 0.089569
0.019348 0.036682 0.086426
0.021729 0.040253 0.090057
0.022034 0.040375 0.090546
0.022034 0.040375 0.090546
0.020660 0.038483 0.087891
0.020966 0.039124 0.088806
0.020691 0.039307 0.090332
0.019867 0.037659 0.087341
0.020325 0.038391 0.087341
0.019165 0.036652 0.084991
0.020874 0.038849 0.087891
0.021606 0.039368 0.089783
0.023987 0.043823 0.094482
0.022034 0.040619 0.091278
0.020966 0.039124 0.088806
0.021606 0.039368 0.089783
0.021149 0.040039 0.090332
0.022369 0.040466 0.091003
0.020874 0.038849 0.087891
0.020081 0.038025 0.087341
0.023041 0.041809 0.091766
0.022491 0.041351 0.091278
0.021179 0.039490 0.088806
0.022156 0.041473 0.091553
0.022675 0.040588 0.091492
0.021729 0.040497 0.090790
0.023132 0.041565 0.092255
0.021057 0.039154 0.090057
0.022034 0.040375 0.090546
0.021179 0.039490 0.088806
0.020630 0.039276 0.089081
0.022400 0.041595 0.090790
0.021179 0.039764 0.089569
0.021179 0.039764 0.089569
0.021942 0.040588 0.090057
0.021729 0.040253 0.090057
0.018707 0.035950 0.084991
0.022491 0.041351 0.091278
0.021179 0.039490 0.088806
0.020721 0.039032 0.089569
0.022247 0.041229 0.092041
0.025177 0.044525 0.095947
0.023560 0.042572 0.092987
0.024841 0.044403 0.095459
0.022034 0.040375 0.090546
0.023285 0.041901 0.091003
0.021057 0.038879 0.089294
0.023224 0.042694 0.093262
0.022675 0.040863 0.092255
0.026917 0.048798 0.099731
0.019867 0.037659 0.087341
0.024017 0.043274 0.092987
0.024750 0.044647 0.094971
0.020325 0.038391 0.087341
0.021271 0.039246 0.089294
0.021942 0.039490 0.090271
0.023651 0.042328 0.093475
0.022675 0.040588 0.091492
0.022369 0.040466 0.091003
0.023865 0.042969 0.094238
0.021484 0.040131 0.090790
0.022583 0.041077 0.091766
0.021515 0.039612 0.089294
0.022278 0.040436 0.089783
0.022949 0.042053 0.091278
0.022705 0.041962 0.092041
0.020966 0.039398 0.089569
0.019012 0.036591 0.085876
0.019562 0.037048 0.086426
0.020081 0.038025 0.087341
0.022705 0.041687 0.091278
0.024231 0.043640 0.092987
0.020874 0.038849 0.087891
0.017456 0.034454 0.082977
0.019043 0.036072 0.085541
0.020355 0.037567 0.088440
0.022156 0.039856 0.090271
0.019287 0.037201 0.086792
0.023773 0.043182 0.093750
0.020660 0.038483 0.087891
0.019958 0.037476 0.085541
0.024231 0.043640 0.092987
0.023254 0.042175 0.091766
0.023254 0.042450 0.092529
0.020599 0.039001 0.088257
0.019714 0.037903 0.086792
0.025116 0.043945 0.093231
0.019562 0.037048 0.086426
0.019867 0.037659 0.087341
0.021179 0.039490 0.088806
0.023590 0.042297 0.092255
0.023041 0.041809 0.091766
0.017517 0.034637 0.082977
0.018921 0.036285 0.084991
0.021484 0.039886 0.090057
0.017761 0.035370 0.083893
0.020416 0.038147 0.087891
0.024994 0.045013 0.094971
0.020599 0.038239 0.087006
0.019257 0.036407 0.085541
0.023224 0.042694 0.093262
0.024414 0.044800 0.095245
0.021729 0.040253 0.090057
0.021240 0.038971 0.088440
0.020966 0.038361 0.087555
0.026581 0.047272 0.098694
0.024445 0.044556 0.094482
0.021271 0.039520 0.090057
0.022888 0.041229 0.092255
0.021606 0.039368 0.089783
0.022705 0.041687 0.091278
0.018127 0.035461 0.084442
0.025726 0.046661 0.097717
0.018921 0.037079 0.086243
0.018646 0.036438 0.085327
0.024078 0.043579 0.094971
0.022705 0.040314 0.090759
0.021271 0.039246 0.089294
0.019745 0.037079 0.087891
0.024109 0.043030 0.093475
0.022369 0.040466 0.091003
0.023438 0.041687 0.092743
0.022064 0.040100 0.089783
0.020660 0.038483 0.087891
0.018463 0.035583 0.084991
0.017456 0.034088 0.082062
0.020416 0.038147 0.087891
0.023010 0.042084 0.092529
0.019226 0.036926 0.085876
0.020020 0.037750 0.086426
0.021942 0.040863 0.090790
0.021118 0.039215 0.087891
0.024994 0.044739 0.094238
0.019501 0.036774 0.085541
0.021057 0.038879 0.089294
0.019562 0.037048 0.086426
0.018036 0.035187 0.083527
0.023163 0.042694 0.092041
0.018280 0.035553 0.083527
0.019653 0.037628 0.085876
0.020691 0.039307 0.090332
0.017822 0.034698 0.083527
0.018646 0.036438 0.085327
0.021729 0.040253 0.090057
0.020508 0.037628 0.087555
0.019135 0.036316 0.086426
0.021729 0.040497 0.090790
0.022247 0.041229 0.092041
0.019714 0.037903 0.086792
0.019257 0.036407 0.085541
0.022705 0.040314 0.090759
0.023346 0.041931 0.092255
0.017700 0.035065 0.082977
0.022125 0.041748 0.092316
0.021393 0.040375 0.090332
0.023651 0.043701 0.094025
0.020966 0.039398 0.089569
0.023438 0.043060 0.093262
0.020630 0.039276 0.089081
0.024689 0.044617 0.093750
0.024750 0.044922 0.095734
0.022797 0.041718 0.092529
0.020691 0.039307 0.090332
0.022797 0.041718 0.092529
0.017761 0.035370 0.083893
0.018646 0.036438 0.085327
0.020081 0.038025 0.087341
0.026062 0.046234 0.096710
0.020721 0.038788 0.088806
0.078705 0.137665 0.224091
0.121155 0.200165 0.318420
0.124756 0.206482 0.327515
0.139221 0.227142 0.359711
0.122345 0.202240 0.321411
0.105499 0.173889 0.280365
0.121155 0.200165 0.318420
0.104431 0.172333 0.278015
0.134155 0.220001 0.348511
0.084198 0.144501 0.235168
0.075836 0.132141 0.216644
0.104431 0.172333 0.278015
0.142670 0.232056 0.367401
0.144440 0.234558 0.371307
0.094574 0.157593 0.256165
0.144440 0.234558 0.371307
0.148071 0.239655 0.379303
0.166351 0.264771 0.418152
0.175690 0.275330 0.431458
0.148071 0.239655 0.379303
0.032898 0.066833 0.121338
0.032898 0.066833 0.121338
0.020660 0.048676 0.101044
0.018402 0.045349 0.097321
0.007416 0.026703 0.068970
0.002502 0.016785 0.049347
0.002167 0.016083 0.047974
0.018799 0.036530 0.084442
0.016083 0.032715 0.078094
0.016388 0.032806 0.078644
0.021027 0.038635 0.088440
0.022583 0.041077 0.091766
0.130890 0.215393 0.341309
0.175690 0.275330 0.431458
0.175690 0.275330 0.431458
0.175690 0.275330 0.431458
0.175690 0.275330 0.431458
0.175690 0.275330 0.431458
0.175690 0.275330 0.431458
0.175690 0.275330 0.431458
0.163757 0.261597 0.413788
0.099365 0.164764 0.266785
0.175690 0.275330 0.431458
0.166351 0.264771 0.418152
0.137512 0.224762 0.355957
0.115387 0.190063 0.303894
0.175690 0.275330 0.431458
0.166351 0.264771 0.418152
0.096436 0.160400 0.260345
0.076385 0.133240 0.218109
0.061859 0.106506 0.181274
0.005280 0.022430 0.060486
0.020660 0.048676 0.101044
0.000000 0.010132 0.034027
0.175690 0.275330 0.431458
0.073700 0.127869 0.210938
0.148071 0.239655 0.379303
0.134155 0.220001 0.348511
0.083405 0.143524 0.233551
0.001129 0.014008 0.043854
0.002502 0.016785 0.049347
0.002167 0.016083 0.047974
0.022827 0.041199 0.091003
0.021820 0.039734 0.089783
0.018463 0.035583 0.084991
0.021820 0.040009 0.090546
0.020844 0.038544 0.089294
0.019287 0.037201 0.086792
0.027252 0.048920 0.100220
0.024750 0.044647 0.094971
0.020966 0.039398 0.089569
0.016479 0.033142 0.078644
0.020294 0.039154 0.088593
0.020294 0.038086 0.088806
0.026520 0.047516 0.098206
0.022034 0.040619 0.091278
0.021057 0.039154 0.090057
0.024414 0.043427 0.094696
0.018433 0.036896 0.086578
0.024750 0.044647 0.094971
0.022247 0.041229 0.092041
0.018646 0.036438 0.085327
0.017212 0.034546 0.082428
0.020966 0.039124 0.088806
0.017853 0.034515 0.082642
0.020416 0.038147 0.087891
0.021820 0.040009 0.090546
0.019562 0.037048 0.086426
0.021027 0.038635 0.088440
0.020599 0.038239 0.087006
0.020142 0.037506 0.087006
0.018707 0.035950 0.084991
0.021271 0.039246 0.089294
0.023407 0.042236 0.094238
0.022369 0.040466 0.091003
0.021240 0.038971 0.088440
0.161652 0.258667 0.409180
0.124756 0.206482 0.327515
0.124756 0.206482 0.327515
0.112030 0.184204 0.295471
0.094574 0.157593 0.256165
0.124756 0.206482 0.327515
0.086670 0.147614 0.240173
0.064270 0.110168 0.186737
0.044189 0.081543 0.143097
0.001831 0.015411 0.046600
0.066101 0.112946 0.190918
0.079468 0.138611 0.225647
0.074768 0.130005 0.213776
0.048492 0.086914 0.151642
0.005280 0.022430 0.060486
0.003204 0.018188 0.052124
0.020844 0.039917 0.089844
0.021057 0.040527 0.090576
0.020966 0.039398 0.089569
0.020508 0.038422 0.088806
0.021057 0.038879 0.089294
0.020630 0.039276 0.089081
0.022400 0.041595 0.090790
0.018402 0.036102 0.085327
0.019928 0.037170 0.087006
0.022369 0.040222 0.090271
0.023895 0.042419 0.092743
0.023010 0.042084 0.092529
0.021179 0.039764 0.089569
0.022247 0.040985 0.091278
0.024963 0.044189 0.095947
0.024200 0.042816 0.093964
0.139221 0.227142 0.359711
0.175690 0.275330 0.431458
0.146240 0.237091 0.375275
0.121155 0.200165 0.318420
0.175690 0.275330 0.431458
0.175690 0.275330 0.431458
0.175690 0.275330 0.431458
0.175690 0.275330 0.431458
0.175690 0.275330 0.431458
0.175690 0.275330 0.431458
0.175690 0.275330 0.431458
0.175690 0.275330 0.431458
0.051178 0.090332 0.157104
0.121155 0.200165 0.318420
0.175690 0.275330 0.431458
0.178925 0.279022 0.436066
0.102386 0.169250 0.273468
0.085022 0.145538 0.236816
0.148071 0.239655 0.379303
0.059509 0.102936 0.175964
0.054474 0.095306 0.164520
0.013214 0.037628 0.088654
0.010651 0.033234 0.081879
0.008850 0.029602 0.074677
0.004944 0.021729 0.059082
0.002838 0.017487 0.050720
0.002167 0.016083 0.047974
0.002502 0.016785 0.049347
0.016174 0.042023 0.093597
0.050629 0.089600 0.155975
0.068634 0.117737 0.197449
0.122345 0.202240 0.321411
0.017822 0.035614 0.084747
0.020813 0.038269 0.088440
0.019836 0.036865 0.086090
0.020721 0.038788 0.088806
0.023895 0.042694 0.093475
0.023468 0.041412 0.091980
0.023682 0.042053 0.092743
0.024109 0.043030 0.093475
0.021515 0.039612 0.089294
0.023895 0.042419 0.092743
0.021606 0.039124 0.088989
0.024353 0.043396 0.093475
0.026733 0.046478 0.097687
0.020081 0.038025 0.087341
0.020874 0.038849 0.087891
0.019165 0.036652 0.084991
0.020355 0.037872 0.087006
0.022491 0.041351 0.091278
0.022156 0.041199 0.090790
0.017395 0.035217 0.083344
0.021942 0.041138 0.091553
0.021606 0.040741 0.090332
0.022491 0.041351 0.091278
0.022614 0.040588 0.090271
0.024780 0.044373 0.094238
0.025940 0.047028 0.097717
0.019867 0.037659 0.087341
0.022156 0.040131 0.091003
0.022797 0.041443 0.091766
0.024323 0.045044 0.094757
0.020416 0.038147 0.087891
0.020081 0.038025 0.087341
0.020966 0.039398 0.089569
0.026825 0.047913 0.099457
0.021606 0.039368 0.089783
0.021576 0.039642 0.090546
0.024506 0.044586 0.095734
0.022675 0.042236 0.092773
0.024841 0.044708 0.096222
0.021271 0.039520 0.090057
0.021057 0.039154 0.090057
0.020203 0.037781 0.087891
0.017792 0.034546 0.083527
0.019653 0.038116 0.088593
0.022156 0.041199 0.090790
0.020966 0.039398 0.089569
0.022461 0.041626 0.092041
0.023529 0.042816 0.093750
0.022705 0.041962 0.092041
0.020203 0.037781 0.087891
0.022797 0.041443 0.091766
0.021240 0.038971 0.088440
0.025421 0.044617 0.095215
0.018616 0.035675 0.084076
0.021057 0.038879 0.089294
0.019440 0.036499 0.084625
0.019348 0.036682 0.086426
0.020508 0.038696 0.089569
0.021271 0.039246 0.089294
0.022614 0.040833 0.091003
0.024078 0.043304 0.094238
0.020142 0.037506 0.087006
0.022034 0.040375 0.090546
0.022614 0.040833 0.091003
0.044617 0.081238 0.143127
0.048553 0.087372 0.152069
0.051086 0.089569 0.156891
0.042480 0.079987 0.141113
0.043030 0.080017 0.140228
0.051941 0.079407 0.146515
0.021729 0.040497 0.090790
0.024536 0.044281 0.094971
0.020416 0.038147 0.087891
0.021179 0.039764 0.089569
0.020203 0.037781 0.087891
0.020264 0.037292 0.087555
0.021515 0.039612 0.089294
0.022827 0.041199 0.091003
0.018646 0.036438 0.085327
0.018860 0.036804 0.085327
0.022034 0.040375 0.090546
0.024323 0.043671 0.094238
0.023254 0.042450 0.092529
0.022461 0.041626 0.092041
0.020966 0.039398 0.089569
0.018921 0.037079 0.086243
0.021606 0.041016 0.091064
0.017822 0.034698 0.083527
0.018341 0.035828 0.084442
0.021729 0.040253 0.090057
0.024231 0.044189 0.094482
0.018463 0.036377 0.086243
0.020508 0.038422 0.088806
0.021271 0.039520 0.090057
0.018127 0.034973 0.084991
0.017944 0.035370 0.085327
0.098206 0.108002 0.211365
0.099335 0.108887 0.213165
0.100769 0.110382 0.215820
0.097504 0.109833 0.212677
0.064484 0.076080 0.153046
0.045227 0.059113 0.127533
0.041351 0.056580 0.122803
0.051422 0.073700 0.141846
0.047821 0.084076 0.147827
0.051819 0.090729 0.157562
0.051361 0.090607 0.157837
0.045135 0.081329 0.143372
0.040649 0.066406 0.126282
0.063171 0.075073 0.151367
0.072327 0.080750 0.164124
0.076630 0.084412 0.170319
0.080719 0.088043 0.177399
0.081421 0.089661 0.180481
0.083008 0.091949 0.184540
0.084869 0.094238 0.187408
0.085602 0.095886 0.189880
0.086853 0.097809 0.192535
0.088196 0.100311 0.195801
0.089172 0.101990 0.198059
0.084808 0.096497 0.190369
0.080292 0.090851 0.181427
0.067841 0.077759 0.155945
0.054932 0.064972 0.138702
0.051086 0.061005 0.133820
0.037720 0.052368 0.118103
0.046570 0.070953 0.135010
0.049561 0.088257 0.153809
0.046509 0.058380 0.129059
0.042023 0.054321 0.122650
0.040161 0.051086 0.119080
0.045166 0.054260 0.125366
0.066406 0.076843 0.154480
0.046295 0.074615 0.137390
0.044067 0.079987 0.141235
0.048126 0.088654 0.152954
0.052277 0.091980 0.159546
0.048492 0.086914 0.151642
0.049988 0.083008 0.148621
0.069550 0.087646 0.167938
0.107910 0.117157 0.232452
0.107971 0.118347 0.230194
0.101776 0.113831 0.219025
0.100525 0.111938 0.217743
0.097168 0.110809 0.213348
0.098297 0.111694 0.215179
0.098297 0.111694 0.215179
0.099579 0.112610 0.216583
0.098450 0.111694 0.214752
0.099426 0.112610 0.217010
0.099182 0.112000 0.216156
0.100464 0.112885 0.217590
0.100555 0.113525 0.218872
0.101318 0.115417 0.221008
0.102661 0.117676 0.224670
0.102325 0.118195 0.226288
0.080811 0.096802 0.186798
0.039520 0.057037 0.122314
0.036499 0.053131 0.118225
0.018646 0.033569 0.090576
0.107910 0.115265 0.228424
0.054108 0.067566 0.139862
0.003784 0.014496 0.047760
0.046631 0.078064 0.141205
0.043243 0.080811 0.140198
0.041931 0.071991 0.133301
0.065826 0.079834 0.156708
0.092957 0.105743 0.204376
0.095062 0.109009 0.209351
0.091187 0.104584 0.201355
0.088470 0.102051 0.197174
0.087830 0.102081 0.196350
0.087097 0.100983 0.194366
0.086365 0.099792 0.192749
0.086945 0.100403 0.194153
0.087952 0.101746 0.197021
0.088104 0.102325 0.197235
0.088745 0.104370 0.200104
0.090851 0.106079 0.203522
0.091003 0.107574 0.204193
0.093872 0.109650 0.209045
0.078613 0.091553 0.179169
0.067596 0.079071 0.157806
0.061707 0.072510 0.149536
0.059906 0.069794 0.146545
0.044739 0.057404 0.126862
0.040375 0.051971 0.120392
0.045837 0.055695 0.126678
0.064209 0.074768 0.151581
0.049164 0.071991 0.137238
0.048370 0.086060 0.148712
0.043549 0.083160 0.144867
0.090546 0.101379 0.197632
0.093842 0.105682 0.207031
0.095398 0.108673 0.210297
0.098877 0.109222 0.212585
0.097870 0.108917 0.212006
0.096710 0.108643 0.211823
0.099884 0.110077 0.214813
0.100372 0.109772 0.215393
0.100098 0.109161 0.214569
0.100586 0.108826 0.215118
0.100586 0.108826 0.215118
0.100342 0.108246 0.214325
0.099030 0.107330 0.212860
0.099182 0.107330 0.212494
0.096893 0.105621 0.208893
0.094666 0.103882 0.205383
0.096191 0.105316 0.207550
0.098419 0.107056 0.211090
