res/luts/untitled.CUBE
#Created by: Adobe Photoshop Export Color Lookup Plugin
TITLE "Custom"
#LUT size
LUT_3D_SIZE 8
#data domain
#LUT data points
DOMAIN_MIN 0.000000 0.000000 0.000000
DOMAIN_MAX 0.903226 0.903226 0.903226
0.000000 0.007141 0.023956
0.004486 0.011108 0.042816
0.014771 0.017761 0.064026
0.027100 0.025543 0.087646
0.048218 0.035522 0.110046
0.070129 0.045624 0.132965
0.087036 0.060944 0.154755
0.100372 0.073059 0.172638
0.004211 0.017242 0.038788
0.006195 0.013153 0.038788
0.016174 0.019165 0.057007
0.027588 0.025116 0.080322
0.048218 0.034027 0.102417
0.073212 0.044952 0.120422
0.089172 0.059326 0.144440
0.103912 0.069611 0.162262
0.021057 0.038879 0.089294
0.018646 0.036438 0.085327
0.023315 0.042480 0.093750
0.024536 0.044281 0.094971
0.022644 0.041412 0.093750
0.021820 0.039734 0.089783
0.019501 0.037567 0.086792
0.018555 0.036163 0.084442
0.025177 0.044525 0.095947
0.023285 0.041901 0.091003
0.026917 0.048798 0.099731
0.020325 0.038391 0.087341
0.022675 0.040588 0.091492
0.022583 0.041077 0.091766
0.022705 0.041962 0.092041
0.020081 0.038025 0.087341
0.078705 0.137665 0.224091
0.122345 0.202240 0.321411
0.134155 0.220001 0.348511
0.142670 0.232056 0.367401
0.148071 0.239655 0.379303
0.032898 0.066833 0.121338
0.007416 0.026703 0.068970
0.016083 0.032715 0.078094
0.139221 0.227142 0.359711
0.175690 0.275330 0.431458
0.175690 0.275330 0.431458
0.051178 0.090332 0.157104
0.102386 0.169250 0.273468
0.054474 0.095306 0.164520
0.004944 0.021729 0.059082
0.016174 0.042023 0.093597
0.098206 0.108002 0.211365
0.064484 0.076080 0.153046
0.047821 0.084076 0.147827
0.040649 0.066406 0.126282
0.080719 0.088043 0.177399
0.085602 0.095886 0.189880
0.084808 0.096497 0.190369
0.051086 0.061005 0.133820
0.083893 0.132172 0.141113
0.095215 0.132263 0.141052
0.105560 0.132263 0.141052
0.111115 0.126801 0.139343
0.111115 0.116638 0.137329
0.111664 0.107330 0.134308
0.113342 0.098755 0.130920
0.113953 0.089233 0.128662
0.000000 0.015228 0.047089
0.000458 0.010651 0.046112
0.012024 0.016754 0.069458
0.026306 0.026672 0.096375
0.045227 0.036469 0.123108
0.066956 0.047211 0.147308
0.082092 0.062622 0.168091
0.097046 0.075043 0.184723
0.000000 0.018158 0.041351
0.006653 0.025208 0.065979
0.017242 0.033295 0.088623
0.031860 0.044922 0.110504
0.054810 0.054596 0.129517
0.072174 0.067261 0.150574
0.086182 0.078186 0.170502
0.107819 0.088776 0.192444
0.020599 0.039001 0.088257
0.022705 0.041687 0.091278
0.023438 0.041962 0.093475
0.021729 0.040253 0.090057
0.022797 0.041443 0.091766
0.021484 0.039886 0.090057
0.021057 0.038879 0.089294
0.019012 0.036591 0.085876
0.023956 0.044098 0.095245
0.021484 0.040131 0.090790
0.020416 0.038147 0.087891
0.022369 0.040741 0.091766
0.021515 0.039612 0.089294
0.022797 0.041443 0.091766
0.021576 0.039642 0.090546
0.016449 0.033325 0.079529
0.117676 0.194061 0.309662
0.142670 0.232056 0.367401
0.175690 0.275330 0.431458
0.140930 0.229584 0.363556
0.116516 0.192047 0.306732
0.007782 0.027435 0.070404
0.081024 0.140533 0.228760
0.002502 0.016785 0.049347
0.102386 0.169250 0.273468
0.132507 0.217682 0.344879
0.175690 0.275330 0.431458
0.175690 0.275330 0.431458
0.123535 0.204346 0.324432
0.070618 0.121704 0.202728
0.013214 0.037628 0.088654
0.025970 0.056580 0.109863
0.096832 0.106506 0.208771
0.099854 0.108551 0.213715
0.042725 0.056915 0.124695
0.047089 0.085236 0.149719
0.074249 0.082581 0.166504
0.085602 0.094757 0.188416
0.088409 0.100037 0.196136
0.086884 0.099518 0.194611
0.071899 0.132172 0.139404
0.093750 0.145111 0.165314
0.106476 0.145111 0.167145
0.116425 0.143402 0.163727
0.119385 0.134491 0.163086
0.119019 0.123505 0.160248
0.117737 0.113800 0.157990
0.118347 0.104492 0.155090
0.002502 0.027771 0.073639
0.002502 0.019257 0.072235
0.006378 0.016754 0.070862
0.014343 0.027618 0.096527
0.033600 0.037079 0.125031
0.060638 0.048035 0.156494
0.076752 0.062683 0.175598
0.092957 0.075043 0.196960
0.071106 0.081940 0.162720
0.041901 0.077454 0.137329
0.095276 0.108673 0.210724
0.094635 0.106873 0.207886
0.096954 0.107117 0.209961
0.096344 0.106842 0.208191
0.096558 0.105927 0.207947
0.097870 0.108307 0.210388
0.021484 0.039886 0.090057
0.019012 0.036591 0.085876
0.022461 0.041626 0.092041
0.021179 0.039490 0.088806
0.019562 0.037048 0.086426
0.019806 0.038208 0.087708
0.020416 0.038147 0.087891
0.022675 0.042236 0.092773
0.023010 0.042084 0.092529
0.018860 0.036804 0.085327
0.024231 0.044189 0.094482
0.020721 0.039032 0.089569
0.018402 0.035309 0.084076
0.019287 0.037201 0.086792
0.023224 0.042694 0.093262
0.019501 0.037567 0.086792
0.135803 0.222351 0.352203
0.175690 0.275330 0.431458
0.175690 0.275330 0.431458
0.123535 0.204346 0.324432
0.107635 0.177094 0.285095
0.057251 0.099487 0.170807
0.122345 0.202240 0.321411
0.001831 0.015411 0.046600
0.139221 0.227142 0.359711
0.175690 0.275330 0.431458
0.175690 0.275330 0.431458
0.151794 0.244873 0.387512
0.096436 0.160400 0.260345
0.132507 0.217682 0.344879
0.000458 0.012634 0.041138
0.001465 0.014709 0.045227
0.097534 0.106781 0.210144
0.097076 0.107117 0.209564
0.102203 0.110962 0.218658
0.049286 0.063904 0.133423
0.048859 0.086090 0.151184
0.079987 0.086273 0.176849
0.087463 0.097778 0.193359
0.091217 0.102234 0.200439
0.060699 0.132996 0.138306
0.080353 0.145111 0.162201
0.103333 0.158539 0.192047
0.117218 0.157349 0.191284
0.126160 0.152985 0.188049
0.128326 0.142517 0.187286
0.127808 0.131256 0.183960
0.125793 0.121094 0.182709
0.000000 0.045654 0.101837
0.000000 0.035950 0.100372
0.000000 0.028717 0.099030
0.004120 0.028717 0.097992
0.018951 0.037445 0.121307
0.043427 0.047852 0.150238
0.064819 0.062683 0.179626
0.079987 0.072784 0.202423
0.000214 0.010315 0.036407
0.058441 0.081146 0.154114
0.092773 0.107239 0.206207
0.096466 0.108032 0.210999
0.096680 0.106506 0.209167
0.096436 0.105927 0.208344
0.098175 0.106476 0.210297
0.002747 0.012421 0.043640
0.023895 0.042694 0.093475
0.017212 0.034363 0.081543
0.019562 0.037048 0.086426
0.021942 0.040863 0.090790
0.019257 0.036407 0.085541
0.020416 0.038147 0.087891
0.021027 0.038635 0.088440
0.017578 0.034271 0.081177
0.021362 0.039276 0.090546
0.022675 0.040588 0.091492
0.019226 0.036926 0.085876
0.024750 0.044647 0.094971
0.021698 0.039703 0.088440
0.020966 0.039124 0.088806
0.020264 0.037292 0.087555
0.022675 0.042236 0.092773
0.157623 0.252991 0.400299
0.175690 0.275330 0.431458
0.144440 0.234558 0.371307
0.114258 0.188080 0.301056
0.124756 0.206482 0.327515
0.044739 0.082214 0.144135
0.101349 0.167725 0.271210
0.001465 0.014709 0.045227
0.117676 0.194061 0.309662
0.175690 0.275330 0.431458
0.153717 0.247528 0.391693
0.139221 0.227142 0.359711
0.139221 0.227142 0.359711
0.175690 0.275330 0.431458
0.134155 0.220001 0.348511
0.001129 0.014008 0.043854
0.098816 0.107666 0.211517
0.097412 0.106781 0.210541
0.096954 0.107117 0.209961
0.104370 0.114044 0.224609
0.019257 0.035034 0.093048
0.036804 0.069000 0.126038
0.085754 0.093689 0.188843
0.089050 0.099976 0.196960
0.046509 0.134705 0.139801
0.065186 0.145111 0.161285
0.088226 0.158539 0.187775
0.109497 0.169708 0.215240
0.127136 0.170410 0.217621
0.134430 0.162506 0.215851
0.134705 0.148987 0.209290
0.138428 0.137024 0.208344
0.000000 0.063965 0.129578
0.000000 0.053436 0.128082
0.000000 0.041870 0.125336
0.000000 0.037384 0.124237
0.007141 0.038818 0.122803
0.025970 0.047852 0.143951
0.051727 0.061279 0.175995
0.059692 0.070770 0.202423
0.042053 0.078064 0.137390
0.096069 0.110840 0.210999
0.095154 0.108063 0.209473
0.095367 0.106567 0.207642
0.096558 0.106506 0.209564
0.096191 0.105316 0.207550
0.076630 0.087738 0.174561
0.037079 0.072723 0.129639
0.022247 0.041229 0.092041
0.023346 0.042206 0.092987
0.025726 0.046661 0.097717
0.022278 0.040710 0.090546
0.021027 0.038635 0.088440
0.022491 0.041077 0.090546
0.024414 0.043152 0.093964
0.020721 0.038788 0.088806
0.022034 0.040619 0.091278
0.022705 0.041962 0.092041
0.017548 0.034790 0.082977
0.022797 0.041443 0.091766
0.019897 0.037994 0.085876
0.022247 0.040985 0.091278
0.022156 0.039856 0.090271
0.017578 0.034607 0.082062
0.175690 0.275330 0.431458
0.130890 0.215393 0.341309
0.175690 0.275330 0.431458
0.144440 0.234558 0.371307
0.121155 0.200165 0.318420
0.068634 0.117737 0.197449
0.035828 0.071075 0.126343
0.002502 0.016785 0.049347
0.124756 0.206482 0.327515
0.175690 0.275330 0.431458
0.175690 0.275330 0.431458
0.139221 0.227142 0.359711
0.134155 0.220001 0.348511
0.008850 0.029602 0.074677
0.175690 0.275330 0.431458
0.021515 0.039612 0.089294
0.080994 0.094391 0.185150
0.093597 0.103027 0.203644
0.096100 0.106842 0.209015
0.102417 0.110962 0.218231
0.070648 0.083588 0.164612
0.045715 0.074615 0.137482
0.065369 0.082489 0.159760
0.087982 0.098053 0.193481
0.032349 0.136261 0.141388
0.047455 0.145294 0.161469
0.071716 0.159973 0.190186
0.093140 0.171631 0.216675
0.119812 0.188019 0.253143
0.142853 0.189087 0.253387
0.140625 0.174286 0.245605
0.141693 0.157745 0.239258
0.000275 0.079651 0.153748
0.001617 0.071320 0.153351
0.002045 0.059387 0.150421
0.002045 0.047455 0.147430
0.007568 0.045654 0.145599
0.015137 0.047150 0.144104
0.035553 0.058716 0.173096
0.042664 0.070068 0.202515
0.089447 0.108826 0.206635
0.094910 0.109009 0.209778
0.096985 0.108643 0.211029
0.096954 0.107117 0.209961
0.095581 0.105652 0.207397
0.097961 0.107391 0.210541
0.000183 0.010223 0.035858
0.080811 0.093903 0.184540
0.022461 0.041626 0.092041
0.020874 0.038849 0.087891
0.024231 0.043915 0.093750
0.021484 0.039886 0.090057
0.019806 0.037415 0.086426
0.018341 0.035828 0.084442
0.020416 0.038147 0.087891
0.020660 0.038483 0.087891
0.018768 0.036224 0.085876
0.022797 0.041443 0.091766
0.022583 0.041077 0.091766
0.021057 0.039154 0.090057
0.020020 0.037750 0.086426
0.018616 0.035675 0.084076
0.021484 0.039337 0.088440
0.020569 0.037903 0.088440
0.105499 0.173889 0.280365
0.175690 0.275330 0.431458
0.175690 0.275330 0.431458
0.175690 0.275330 0.431458
0.175690 0.275330 0.431458
0.126099 0.208649 0.330719
0.012482 0.036530 0.087463
0.041016 0.077576 0.136719
0.062439 0.107391 0.182617
0.175690 0.275330 0.431458
0.126099 0.208649 0.330719
0.157623 0.252991 0.400299
0.123535 0.204346 0.324432
0.008850 0.029602 0.074677
0.009186 0.030304 0.076111
0.020721 0.038788 0.088806
0.056427 0.098114 0.168030
0.101257 0.110046 0.216400
0.097870 0.108917 0.212006
0.096283 0.108337 0.209656
0.100128 0.110718 0.215668
0.049225 0.063995 0.133759
0.042084 0.078888 0.138855
0.083466 0.092957 0.185303
0.022980 0.136108 0.144684
0.033905 0.146576 0.163879
0.052185 0.159973 0.190186
0.074402 0.173401 0.219818
0.096375 0.189941 0.252960
0.136841 0.209656 0.296448
0.155548 0.205383 0.295654
0.148834 0.186584 0.287079
0.000244 0.095154 0.181976
0.000000 0.085754 0.179321
0.003021 0.076294 0.177155
0.005859 0.065826 0.175018
0.006317 0.055115 0.172455
0.010864 0.056641 0.173981
0.020752 0.056915 0.172913
0.027252 0.068359 0.200806
0.095337 0.111176 0.211243
0.095398 0.108673 0.210297
0.095245 0.106567 0.208038
0.096222 0.106842 0.208588
0.095245 0.105957 0.206451
0.001404 0.011444 0.040588
0.046295 0.072662 0.136444
0.085327 0.101013 0.194519
0.021576 0.039642 0.090546
0.022369 0.040466 0.091003
0.016846 0.034302 0.081879
0.020721 0.038788 0.088806
0.024750 0.044647 0.094971
0.020447 0.037354 0.086639
0.022278 0.040710 0.090546
0.022705 0.040314 0.090759
0.019562 0.037048 0.086426
0.021423 0.040131 0.089569
0.020233 0.038116 0.086426
0.020355 0.037872 0.087006
0.020142 0.038300 0.088257
0.023468 0.041412 0.091980
0.022614 0.040588 0.090271
0.021729 0.039978 0.089294
0.119965 0.198120 0.315491
0.175690 0.275330 0.431458
0.175690 0.275330 0.431458
0.175690 0.275330 0.431458
0.155670 0.250275 0.395996
0.142670 0.232056 0.367401
0.003204 0.018188 0.052124
0.008484 0.028870 0.073242
0.002838 0.017487 0.050720
0.002502 0.016785 0.049347
0.024994 0.045013 0.094971
0.019104 0.037170 0.085327
0.109863 0.180389 0.290009
0.002502 0.016785 0.049347
0.020416 0.038147 0.087891
0.023254 0.042450 0.092529
0.049072 0.089020 0.154266
0.046631 0.081757 0.144684
0.096222 0.106842 0.208588
0.095673 0.108673 0.209503
0.099640 0.111053 0.215088
0.102112 0.114746 0.222198
0.041870 0.057037 0.124084
0.044067 0.081970 0.144318
0.018311 0.134552 0.154144
0.028748 0.145111 0.173615
0.041016 0.159973 0.197937
0.057831 0.174622 0.225494
0.073029 0.189331 0.252380
0.097504 0.210327 0.294312
0.157227 0.237732 0.347168
0.162872 0.222015 0.345795
0.000000 0.107727 0.209930
0.000000 0.099060 0.209930
0.000000 0.091156 0.209290
0.000000 0.081757 0.206177
0.000000 0.072388 0.203064
0.000580 0.066162 0.202454
0.006805 0.066162 0.200897
0.013184 0.066162 0.199310
0.093933 0.108704 0.209167
0.094299 0.107178 0.206940
0.095612 0.107147 0.208435
0.098083 0.108002 0.211761
0.079163 0.090942 0.178680
0.044067 0.081360 0.142365
0.089691 0.106720 0.203217
0.085785 0.102448 0.196198
0.022247 0.041229 0.092041
0.023254 0.042450 0.092529
0.020966 0.039124 0.088806
0.023560 0.042572 0.092987
0.019928 0.037933 0.088257
0.019806 0.037415 0.086426
0.024994 0.045013 0.094971
0.024231 0.043915 0.093750
0.020844 0.038544 0.089294
0.019653 0.037628 0.085876
0.023987 0.043549 0.093750
0.020721 0.037994 0.087555
0.022583 0.041077 0.091766
0.021271 0.039246 0.089294
0.021973 0.040344 0.089294
0.023468 0.041412 0.091980
0.121155 0.200165 0.318420
0.175690 0.275330 0.431458
0.175690 0.275330 0.431458
0.132507 0.217682 0.344879
0.175690 0.275330 0.431458
0.078705 0.137665 0.224091
0.123535 0.204346 0.324432
0.002502 0.016785 0.049347
0.022064 0.040100 0.089783
0.024414 0.043152 0.093964
0.020355 0.037872 0.087006
0.019501 0.037567 0.086792
0.042084 0.078888 0.138855
0.018463 0.035583 0.084991
0.022278 0.040710 0.090546
0.021179 0.039764 0.089569
0.043488 0.053192 0.122833
0.048065 0.088135 0.152527
0.062592 0.082642 0.157288
0.098877 0.109802 0.214233
0.096283 0.109894 0.210724
0.099915 0.111664 0.215912
0.103394 0.119019 0.227661
0.016876 0.031281 0.086243
0.013519 0.132965 0.163818
0.020386 0.145111 0.183533
0.030640 0.159668 0.207733
0.043671 0.173676 0.234161
0.051605 0.192596 0.270874
0.079437 0.211273 0.306244
0.127686 0.238983 0.358063
0.173523 0.272858 0.428345
