res/luts/Warm1.CUBE
#Created by: Adobe Photoshop Export Color Lookup Plugin
TITLE "Warm"
#LUT size
LUT_3D_SIZE 8
#data domain
#LUT data points
DOMAIN_MIN 0.000000 0.000000 0.000000
DOMAIN_MAX 0.903226 0.903226 0.903226
0.000000 0.000000 0.000000
0.010529 0.000000 0.002808
0.161072 0.000000 0.042938
0.311646 0.000000 0.083099
0.462250 0.000000 0.123230
0.612793 0.000000 0.163361
0.763367 0.000000 0.203522
0.820007 0.000000 0.218628
0.002502 0.009369 0.000000
0.010529 0.006561 0.000000
0.161072 0.000000 0.033569
0.311646 0.000000 0.073730
0.462250 0.000000 0.113861
0.612793 0.000000 0.153961
0.763367 0.000000 0.194183
0.820007 0.000000 0.209198
0.198669 0.110382 0.000000
0.173218 0.106232 0.000000
0.226715 0.117523 0.000000
0.234863 0.133728 0.000000
0.226715 0.099243 0.000000
0.203247 0.118591 0.000000
0.181305 0.110657 0.000000
0.165009 0.106445 0.000000
0.243958 0.127472 0.000000
0.202209 0.133575 0.000000
0.257019 0.151489 0.004852
0.181305 0.115875 0.000000
0.215942 0.114990 0.000000
0.214996 0.118530 0.000000
0.213959 0.128387 0.000000
0.185883 0.113586 0.000000
0.630188 0.461060 0.408997
0.852875 0.623932 0.553467
0.884857 0.657501 0.581238
0.878204 0.694733 0.605743
0.874176 0.717224 0.620575
0.219604 0.160736 0.142548
0.021759 0.015930 0.014130
0.134521 0.084106 0.000000
0.880859 0.679840 0.595947
0.858154 0.806671 0.679596
0.858154 0.806671 0.679596
0.382904 0.280090 0.248474
0.763763 0.558807 0.495728
0.412537 0.301788 0.267761
0.000000 0.000000 0.000000
0.110809 0.081024 0.071899
0.990845 0.024109 0.275696
0.619537 0.000000 0.169098
0.358551 0.242859 0.209564
0.343414 0.072510 0.091675
0.797241 0.000000 0.207275
0.887726 0.000000 0.241425
0.886719 0.000000 0.246155
0.485199 0.000000 0.142731
0.217285 0.815002 0.000000
0.227814 0.815002 0.000000
0.378448 0.815002 0.000000
0.528870 0.815002 0.000000
0.679504 0.815002 0.000000
0.815002 0.799866 0.000000
0.815002 0.649445 0.000000
0.820007 0.596375 0.000000
0.000000 0.002197 0.008240
0.010010 0.000000 0.010529
0.161072 0.000000 0.051208
0.311646 0.000000 0.091309
0.462250 0.000000 0.131470
0.612793 0.000000 0.171600
0.763367 0.000000 0.211700
0.820007 0.000000 0.226837
0.000000 0.009369 0.005737
0.011383 0.008301 0.007385
0.169312 0.000000 0.043884
0.319885 0.000000 0.084106
0.470490 0.000000 0.124298
0.621033 0.000000 0.164368
0.771606 0.000000 0.204590
0.828247 0.000000 0.219604
0.184937 0.117767 0.000000
0.205841 0.129791 0.000000
0.227722 0.113983 0.000000
0.202209 0.122528 0.000000
0.214996 0.124176 0.000000
0.202209 0.117004 0.000000
0.198669 0.110382 0.000000
0.177765 0.104156 0.000000
0.233856 0.125275 0.000000
0.205841 0.112579 0.000000
0.190460 0.111359 0.000000
0.214996 0.112854 0.000000
0.198669 0.120972 0.000000
0.214996 0.124176 0.000000
0.206787 0.109009 0.000000
0.140564 0.087708 0.000000
0.833069 0.609436 0.540619
0.878204 0.694733 0.605743
0.858154 0.806671 0.679596
0.879517 0.687347 0.600891
0.828125 0.605865 0.537445
0.026672 0.019592 0.017303
0.645081 0.471954 0.418671
0.000000 0.000000 0.000000
0.763763 0.558807 0.495728
0.886200 0.650055 0.576294
0.858154 0.806671 0.679596
0.858154 0.806671 0.679596
0.857758 0.627563 0.556702
0.556030 0.406769 0.360840
0.091003 0.066620 0.059082
0.175110 0.128082 0.113678
0.987213 0.016022 0.270447
1.000000 0.027649 0.286865
0.421143 0.000000 0.121216
0.353210 0.244171 0.229218
0.717957 0.000000 0.188599
0.879547 0.000000 0.234924
0.936035 0.000000 0.257324
0.913727 0.008057 0.256592
0.209137 0.815002 0.000000
0.221893 0.823242 0.000000
0.375458 0.823242 0.000000
0.528992 0.823242 0.000000
0.682739 0.823242 0.000000
0.823242 0.810181 0.000000
0.823242 0.656433 0.000000
0.828247 0.602386 0.000000
0.000000 0.033600 0.126068
0.000000 0.023071 0.126068
0.153137 0.000000 0.161072
0.311646 0.000000 0.209167
0.462250 0.000000 0.249298
0.612793 0.000000 0.289490
0.763367 0.000000 0.329498
0.820007 0.000000 0.344727
0.687439 0.000000 0.177551
0.302826 0.196136 0.179138
0.959839 0.052673 0.298065
0.964417 0.035797 0.283356
0.984741 0.025146 0.281921
0.980927 0.017731 0.263000
0.988556 0.011078 0.268097
0.985901 0.020874 0.258362
0.202209 0.117004 0.000000
0.177765 0.104156 0.000000
0.213959 0.122498 0.000000
0.189514 0.120575 0.000000
0.182343 0.106964 0.000000
0.184937 0.112274 0.000000
0.190460 0.111359 0.000000
0.217560 0.123657 0.000000
0.218536 0.125427 0.000000
0.168610 0.108398 0.000000
0.230255 0.137054 0.000000
0.197632 0.108459 0.000000
0.170593 0.101135 0.000000
0.181305 0.105560 0.000000
0.222137 0.126648 0.000000
0.181305 0.110657 0.000000
0.883545 0.664886 0.586090
0.858154 0.806671 0.679596
0.858154 0.806671 0.679596
0.857758 0.627563 0.556702
0.788544 0.576874 0.511719
0.437286 0.319885 0.283813
0.852875 0.623932 0.553467
0.000000 0.000000 0.000000
0.880859 0.679840 0.595947
0.858154 0.806671 0.679596
0.858154 0.806671 0.679596
0.871490 0.732056 0.630432
0.734131 0.537079 0.476440
0.886200 0.650055 0.576294
0.000000 0.000000 0.000000
0.000000 0.000000 0.000000
0.992554 0.017822 0.279358
0.985901 0.020874 0.272736
1.000000 0.049072 0.306061
0.480774 0.000000 0.126770
0.367065 0.243317 0.220947
0.788879 0.000000 0.224365
0.914673 0.000000 0.253906
0.962463 0.000061 0.262756
0.091125 0.815002 0.000000
0.101593 0.825531 0.000000
0.298676 0.941071 0.000000
0.504303 0.941071 0.000000
0.710175 0.941071 0.000000
0.915802 0.941071 0.000000
0.941071 0.760712 0.000000
0.946075 0.686920 0.000000
0.000000 0.065033 0.243927
0.000000 0.054504 0.243927
0.096069 0.000000 0.243927
0.296265 0.000000 0.311646
0.462250 0.000000 0.367126
0.612793 0.000000 0.407227
0.763367 0.000000 0.447479
0.820007 0.000000 0.462463
0.000000 0.000000 0.000000
0.521759 0.101440 0.195435
0.944214 0.045898 0.277496
0.975403 0.038086 0.293243
0.986267 0.019531 0.278931
0.987793 0.013916 0.276154
1.000000 0.010895 0.277252
0.000000 0.000000 0.000000
0.227722 0.125549 0.000000
0.148682 0.096771 0.000000
0.182343 0.106964 0.000000
0.205841 0.124084 0.000000
0.178741 0.105469 0.000000
0.190460 0.111359 0.000000
0.195038 0.114227 0.000000
0.149719 0.097595 0.000000
0.206787 0.103455 0.000000
0.215942 0.114990 0.000000
0.177765 0.109009 0.000000
0.234863 0.140015 0.000000
0.185883 0.123901 0.000000
0.194092 0.118073 0.000000
0.191498 0.102997 0.000000
0.217560 0.123657 0.000000
0.867493 0.754425 0.645142
0.858154 0.806671 0.679596
0.876862 0.702179 0.610687
0.818237 0.598572 0.530975
0.862732 0.631165 0.559906
0.323517 0.236694 0.209900
0.758881 0.555176 0.492493
0.000000 0.000000 0.000000
0.833069 0.609436 0.540619
0.858154 0.806671 0.679596
0.870178 0.739471 0.635284
0.880859 0.679840 0.595947
0.880859 0.679840 0.595947
0.858154 0.806671 0.679596
0.884857 0.657501 0.581238
0.000000 0.000000 0.000000
0.998505 0.017456 0.273499
0.992554 0.017822 0.285767
0.984741 0.025146 0.281921
1.000000 0.074554 0.327393
0.194672 0.000000 0.062500
0.269897 0.128906 0.134979
0.876434 0.000000 0.253571
0.941101 0.000000 0.265381
0.000000 0.815002 0.026672
0.000000 0.825531 0.019348
0.136536 0.976074 0.000000
0.421478 1.000000 0.058929
0.669617 1.000000 0.058929
0.917755 1.000000 0.058929
1.000000 0.834106 0.058929
1.000000 0.742218 0.063934
0.000000 0.096466 0.361816
0.000000 0.085938 0.361816
0.064575 0.000000 0.361816
0.215179 0.000000 0.361816
0.439453 0.000000 0.462250
0.612793 0.000000 0.525116
0.763367 0.000000 0.565247
0.820007 0.000000 0.580383
0.301483 0.217957 0.184082
0.954041 0.052338 0.261688
0.961731 0.045685 0.288116
0.973358 0.024261 0.271973
0.986267 0.019531 0.285278
0.989288 0.008331 0.273224
0.764038 0.002045 0.213745
0.259216 0.175446 0.168213
0.213959 0.116547 0.000000
0.223114 0.122559 0.000000
0.250183 0.139984 0.000000
0.206787 0.125397 0.000000
0.195038 0.114227 0.000000
0.202209 0.128052 0.000000
0.232269 0.128540 0.000000
0.194092 0.112793 0.000000
0.210419 0.115540 0.000000
0.213959 0.128387 0.000000
0.161438 0.099884 0.000000
0.214996 0.124176 0.000000
0.164032 0.115570 0.000000
0.210419 0.121277 0.000000
0.207825 0.116241 0.000000
0.153259 0.099609 0.000000
0.858154 0.806671 0.679596
0.882507 0.645660 0.572754
0.858154 0.806671 0.679596
0.876862 0.702179 0.610687
0.847870 0.620300 0.550262
0.536224 0.392303 0.348022
0.239441 0.175140 0.155365
0.000000 0.000000 0.000000
0.862732 0.631165 0.559906
0.858154 0.806671 0.679596
0.858154 0.806671 0.679596
0.880859 0.679840 0.595947
0.884857 0.657501 0.581238
0.041595 0.030426 0.027008
0.858154 0.806671 0.679596
0.198669 0.120972 0.000000
0.808441 0.031525 0.246429
0.976288 0.000000 0.272430
0.978455 0.026855 0.281494
1.000000 0.047577 0.298950
0.677612 0.020325 0.198761
0.371368 0.119537 0.137360
0.610077 0.054657 0.196228
0.919250 0.000000 0.249115
0.000000 0.815002 0.144470
0.000000 0.825531 0.140472
0.000000 0.976074 0.039307
0.272491 1.000000 0.126648
0.579132 0.984039 0.192749
0.841858 0.984039 0.192749
0.984039 0.863312 0.192749
0.990936 0.768860 0.190887
0.000000 0.127869 0.479645
0.000000 0.117340 0.479645
0.033142 0.000000 0.479645
0.183746 0.000000 0.479645
0.334320 0.000000 0.479645
0.582581 0.000000 0.612793
0.763367 0.000000 0.683228
0.820007 0.000000 0.698273
0.903442 0.088745 0.312317
0.954041 0.052338 0.283051
0.975586 0.037384 0.279480
0.984741 0.025146 0.281921
0.981506 0.015625 0.275726
0.992188 0.019165 0.273102
0.000000 0.000000 0.000000
0.809967 0.025909 0.243744
0.213959 0.122498 0.000000
0.185883 0.118713 0.000000
0.222137 0.138885 0.000000
0.202209 0.117004 0.000000
0.182343 0.111969 0.000000
0.169617 0.104523 0.000000
0.190460 0.111359 0.000000
0.190460 0.116425 0.000000
0.177765 0.099121 0.000000
0.214996 0.124176 0.000000
0.214996 0.118530 0.000000
0.202209 0.105896 0.000000
0.177765 0.114044 0.000000
0.170593 0.105591 0.000000
0.190460 0.121582 0.000000
0.195038 0.104034 0.000000
0.778625 0.569641 0.505310
0.858154 0.806671 0.679596
0.858154 0.806671 0.679596
0.858154 0.806671 0.679596
0.858154 0.806671 0.679596
0.867645 0.634796 0.563110
0.086029 0.062958 0.055878
0.288910 0.211426 0.187500
0.481842 0.352478 0.312653
0.858154 0.806671 0.679596
0.867645 0.634796 0.563110
0.867493 0.754425 0.645142
0.857758 0.627563 0.556702
0.041595 0.030426 0.027008
0.046478 0.034027 0.030182
0.194092 0.112793 0.000000
0.422455 0.323364 0.274170
1.000000 0.039429 0.293884
0.981873 0.035675 0.279846
0.970703 0.034088 0.269379
0.991821 0.042084 0.285553
0.481659 0.000000 0.132751
0.298798 0.218628 0.193939
0.852539 0.000000 0.228760
0.000000 0.815002 0.262451
0.000000 0.825531 0.261414
0.000000 0.976074 0.215179
0.126648 1.000000 0.185272
0.464478 0.946594 0.330658
0.743103 0.940094 0.354523
0.940094 0.874176 0.354523
0.946960 0.779816 0.352661
0.000000 0.159302 0.597473
0.000000 0.148773 0.597473
0.001740 0.000000 0.597473
0.152283 0.000000 0.597473
0.302979 0.000000 0.597473
0.464691 0.000000 0.612793
0.725708 0.000000 0.763367
0.820007 0.000000 0.816010
0.945129 0.063873 0.273224
0.960388 0.050629 0.290497
0.972198 0.028534 0.281036
0.979614 0.022583 0.272369
0.976013 0.014465 0.260010
0.000000 0.000000 0.000000
0.390625 0.091522 0.133423
0.875488 0.041779 0.260376
0.206787 0.109009 0.000000
0.211365 0.117462 0.000000
0.152283 0.094147 0.000000
0.194092 0.112793 0.000000
0.234863 0.140015 0.000000
0.187897 0.111237 0.000000
0.206787 0.125397 0.000000
0.212402 0.119171 0.000000
0.182343 0.106964 0.000000
0.193054 0.122345 0.000000
0.173218 0.116180 0.000000
0.186920 0.114807 0.000000
0.189514 0.109802 0.000000
0.220551 0.123291 0.000000
0.207825 0.126740 0.000000
0.194092 0.123444 0.000000
0.842926 0.616699 0.547089
0.858154 0.806671 0.679596
0.858154 0.806671 0.679596
0.858154 0.806671 0.679596
0.868835 0.747009 0.640228
0.878204 0.694733 0.605743
0.000000 0.000000 0.000000
0.036621 0.026733 0.023712
0.000000 0.000000 0.000000
0.000000 0.000000 0.000000
0.230255 0.143463 0.000000
0.164032 0.110596 0.000000
0.798401 0.584167 0.518158
0.000000 0.000000 0.000000
0.190460 0.111359 0.000000
0.218536 0.131348 0.000000
0.359039 0.280884 0.250427
0.351318 0.220673 0.193268
0.979614 0.022583 0.272369
0.963043 0.040771 0.271576
0.985474 0.043793 0.278076
0.988708 0.074799 0.309753
0.416016 0.000000 0.119537
0.322174 0.229950 0.214905
0.000000 0.815002 0.380249
0.000000 0.825531 0.382141
0.000000 0.976074 0.391052
0.126648 1.000000 0.389771
0.330658 0.946594 0.402527
0.644287 0.896149 0.516327
0.896149 0.885010 0.516327
0.903015 0.790680 0.514435
0.000000 0.190704 0.715302
0.000000 0.180237 0.715302
0.000000 0.029694 0.715302
0.121033 0.000000 0.715302
0.271545 0.000000 0.715302
0.422089 0.000000 0.715302
0.607941 0.000000 0.763367
0.706085 0.000000 0.820007
0.946472 0.058929 0.292084
0.959412 0.032654 0.266388
0.972015 0.029205 0.274353
0.989502 0.028961 0.285034
0.784668 0.011810 0.210297
0.313660 0.236603 0.203522
0.917725 0.057617 0.278107
0.879120 0.049866 0.265472
0.213959 0.116547 0.000000
0.218536 0.131348 0.000000
0.194092 0.118073 0.000000
0.223114 0.128387 0.000000
0.189514 0.104462 0.000000
0.182343 0.111969 0.000000
0.230255 0.143463 0.000000
0.222137 0.138885 0.000000
0.198669 0.105011 0.000000
0.168610 0.113312 0.000000
0.226715 0.135651 0.000000
0.191498 0.112762 0.000000
0.214996 0.118530 0.000000
0.198669 0.115692 0.000000
0.189514 0.125977 0.000000
0.220551 0.123291 0.000000
0.847870 0.620300 0.550262
0.858154 0.806671 0.679596
0.858154 0.806671 0.679596
0.886200 0.650055 0.576294
0.858154 0.806671 0.679596
0.630188 0.461060 0.408997
0.857758 0.627563 0.556702
0.000000 0.000000 0.000000
0.203247 0.123840 0.000000
0.232269 0.128540 0.000000
0.186920 0.114807 0.000000
0.181305 0.110657 0.000000
0.298798 0.218628 0.193939
0.174164 0.097839 0.000000
0.206787 0.125397 0.000000
0.197632 0.119598 0.000000
0.415436 0.000000 0.118164
0.347839 0.281128 0.248901
0.569733 0.074768 0.184143
0.985474 0.043793 0.292328
0.961731 0.045685 0.266876
0.984161 0.048706 0.280273
0.980682 0.104279 0.316742
0.161987 0.000000 0.044647
0.000000 0.815002 0.498047
0.000000 0.825531 0.503052
0.000000 0.976074 0.567139
0.126648 1.000000 0.594238
0.330658 0.946594 0.608246
0.537354 0.890442 0.622192
0.808441 0.852173 0.678101
0.859070 0.801575 0.676239
