res/luts/Warm1.CUBE
#Created by: Adobe Photoshop Export Color Lookup Plugin
TITLE "Warm"
#LUT size
LUT_3D_SIZE 5
#data domain
#LUT data points
DOMAIN_MIN 0.000000 0.000000 0.000000
DOMAIN_MAX 0.903226 0.903226 0.903226
0.000000 0.000000 0.000000
0.123444 0.000000 0.032898
0.386932 0.000000 0.103149
0.650452 0.000000 0.173401
0.820007 0.000000 0.218628
0.864624 0.017426 0.223633
0.777618 0.000000 0.196503
0.170959 0.064697 0.071747
0.184937 0.106903 0.000000
0.258331 0.143982 0.000000
0.259308 0.139282 0.000000
0.250183 0.139984 0.000000
0.227722 0.131317 0.000000
0.190460 0.111359 0.000000
0.178741 0.110229 0.000000
0.168610 0.098297 0.000000
0.227722 0.131317 0.000000
0.185883 0.118713 0.000000
0.196686 0.124115 0.000000
0.214996 0.124176 0.000000
0.217285 0.815002 0.000000
0.340637 0.815002 0.000000
0.604279 0.815002 0.000000
0.815002 0.762268 0.000000
0.820007 0.596375 0.000000
0.000000 0.025757 0.096619
0.117371 0.000000 0.123444
0.386932 0.000000 0.199799
0.650452 0.000000 0.269958
0.820007 0.000000 0.315308
0.065918 0.000000 0.017578
0.000000 0.000000 0.000000
0.177765 0.114044 0.000000
0.194092 0.123444 0.000000
0.214996 0.129852 0.000000
0.194092 0.107361 0.000000
0.125397 0.078369 0.000000
0.156860 0.097046 0.000000
0.233856 0.145020 0.000000
0.226715 0.123535 0.000000
0.214996 0.124176 0.000000
0.190460 0.131775 0.000000
0.207825 0.121460 0.000000
0.184937 0.117767 0.000000
0.238464 0.141418 0.000000
0.120575 0.815002 0.000000
0.277100 0.911621 0.000000
0.611389 0.911621 0.000000
0.911621 0.877350 0.000000
0.916626 0.665985 0.000000
0.000000 0.080750 0.302856
0.042725 0.000000 0.302856
0.367859 0.000000 0.386932
0.650452 0.000000 0.476257
0.820007 0.000000 0.521515
0.115906 0.000000 0.032867
0.190460 0.106201 0.000000
0.204803 0.128693 0.000000
0.206787 0.125397 0.000000
0.143127 0.088409 0.000000
0.199615 0.112091 0.000000
0.213959 0.116547 0.000000
0.227722 0.119751 0.000000
0.226715 0.135651 0.000000
0.243011 0.144348 0.000000
0.218536 0.113647 0.000000
0.243011 0.137939 0.000000
0.202209 0.122528 0.000000
0.184937 0.112274 0.000000
0.244995 0.129791 0.000000
0.000000 0.815002 0.085571
0.006653 0.938446 0.000000
0.497772 1.000000 0.117859
0.951752 1.000000 0.117859
1.000000 0.757599 0.122864
0.000000 0.135712 0.509094
0.000000 0.012299 0.509094
0.251190 0.000000 0.509094
0.618378 0.000000 0.650452
0.820007 0.000000 0.727722
0.184937 0.112274 0.000000
0.185883 0.113586 0.000000
0.182343 0.111969 0.000000
0.202209 0.122528 0.000000
0.195038 0.114227 0.000000
0.165009 0.101593 0.000000
0.234863 0.121216 0.000000
0.210419 0.121277 0.000000
0.173218 0.101196 0.000000
0.238464 0.115387 0.000000
0.185883 0.103302 0.000000
0.155853 0.100769 0.000000
0.195038 0.119324 0.000000
0.213959 0.128387 0.000000
0.217560 0.123657 0.000000
0.000000 0.815002 0.291901
0.000000 0.938446 0.273102
0.227234 0.974670 0.241272
0.784210 0.929108 0.394958
0.935974 0.782501 0.393097
0.000000 0.190704 0.715302
0.000000 0.067230 0.715302
0.196289 0.000000 0.715302
0.459808 0.000000 0.715302
0.706085 0.000000 0.820007
0.210419 0.121277 0.000000
0.195038 0.114227 0.000000
0.185883 0.108429 0.000000
0.203247 0.118591 0.000000
0.198669 0.126251 0.000000
0.189514 0.125977 0.000000
0.213959 0.122498 0.000000
0.213959 0.134399 0.000000
0.232269 0.134338 0.000000
0.238464 0.141418 0.000000
0.177765 0.109009 0.000000
0.181305 0.100311 0.000000
0.183929 0.105164 0.000000
0.193054 0.128021 0.000000
0.169617 0.104523 0.000000
0.000000 0.815002 0.498047
0.000000 0.938446 0.552856
0.227234 0.974670 0.601318
0.589050 0.876373 0.625671
0.859070 0.801575 0.676239
