res/luts/Warm1.CUBE
#Created by: Adobe Photoshop Export Color Lookup Plugin
TITLE "Warm"
#LUT size
LUT_3D_SIZE 32
#data domain
DOMAIN_MIN 0.0 0.0 0.0
DOMAIN_MAX 1.0 1.0 1.0
#LUT data points
0.000000 0.000000 0.000000
0.000000 0.000000 0.000000
0.000000 0.000000 0.000000
0.000000 0.000000 0.000000
0.010529 0.000000 0.002808
0.048157 0.000000 0.012848
0.085815 0.000000 0.022888
0.123444 0.000000 0.032898
0.161072 0.000000 0.042938
0.198730 0.000000 0.052979
0.236359 0.000000 0.063019
0.274017 0.000000 0.073059
0.311646 0.000000 0.083099
0.349304 0.000000 0.093140
0.386932 0.000000 0.103149
0.424561 0.000000 0.113190
0.462250 0.000000 0.123230
0.499878 0.000000 0.133270
0.537537 0.000000 0.143311
0.575165 0.000000 0.153351
0.612793 0.000000 0.163361
0.650452 0.000000 0.173401
0.688080 0.000000 0.183441
0.725708 0.000000 0.193481
0.763367 0.000000 0.203522
0.800995 0.000000 0.213531
0.820007 0.000000 0.218628
0.820007 0.000000 0.218628
0.820007 0.000000 0.218628
0.820007 0.000000 0.218628
0.820007 0.000000 0.218628
0.820007 0.000000 0.218628
0.000000 0.000000 0.000000
0.000000 0.000000 0.000000
0.000000 0.000000 0.000000
0.000000 0.000000 0.000000
0.010529 0.000000 0.002808
0.048157 0.000000 0.012848
0.085815 0.000000 0.022888
0.123444 0.000000 0.032898
0.161072 0.000000 0.042938
0.198730 0.000000 0.052979
0.236359 0.000000 0.063019
0.274017 0.000000 0.073059
0.311646 0.000000 0.083099
0.349304 0.000000 0.093140
0.386932 0.000000 0.103149
0.424561 0.000000 0.113190
0.462250 0.000000 0.123230
0.499878 0.000000 0.133270
0.537537 0.000000 0.143311
0.575165 0.000000 0.153351
0.612793 0.000000 0.163361
0.650452 0.000000 0.173401
0.688080 0.000000 0.183441
0.725708 0.000000 0.193481
0.763367 0.000000 0.203522
0.800995 0.000000 0.213531
0.820007 0.000000 0.218628
0.820007 0.000000 0.218628
0.820007 0.000000 0.218628
0.820007 0.000000 0.218628
0.820007 0.000000 0.218628
0.820007 0.000000 0.218628
0.000000 0.000000 0.000000
0.000000 0.000000 0.000000
0.000000 0.000000 0.000000
0.000000 0.000000 0.000000
0.010529 0.000000 0.002808
0.048157 0.000000 0.012848
0.085815 0.000000 0.022888
0.123444 0.000000 0.032898
0.161072 0.000000 0.042938
0.198730 0.000000 0.052979
0.236359 0.000000 0.063019
0.274017 0.000000 0.073059
0.311646 0.000000 0.083099
0.349304 0.000000 0.093140
0.386932 0.000000 0.103149
0.424561 0.000000 0.113190
0.462250 0.000000 0.123230
0.499878 0.000000 0.133270
0.537537 0.000000 0.143311
0.575165 0.000000 0.153351
0.612793 0.000000 0.163361
0.650452 0.000000 0.173401
0.688080 0.000000 0.183441
0.725708 0.000000 0.193481
0.763367 0.000000 0.203522
0.800995 0.000000 0.213531
0.820007 0.000000 0.218628
0.820007 0.000000 0.218628
0.820007 0.000000 0.218628
0.820007 0.000000 0.218628
0.820007 0.000000 0.218628
0.820007 0.000000 0.218628
0.000000 0.000000 0.000000
0.000000 0.000000 0.000000
0.000000 0.000000 0.000000
0.000000 0.000000 0.000000
0.010529 0.000000 0.002808
0.048157 0.000000 0.012848
0.085815 0.000000 0.022888
0.123444 0.000000 0.032898
0.161072 0.000000 0.042938
0.198730 0.000000 0.052979
0.236359 0.000000 0.063019
0.274017 0.000000 0.073059
0.311646 0.000000 0.083099
0.349304 0.000000 0.093140
0.386932 0.000000 0.103149
0.424561 0.000000 0.113190
0.462250 0.000000 0.123230
0.499878 0.000000 0.133270
0.537537 0.000000 0.143311
0.575165 0.000000 0.153351
0.612793 0.000000 0.163361
0.650452 0.000000 0.173401
0.688080 0.000000 0.183441
0.725708 0.000000 0.193481
0.763367 0.000000 0.203522
0.800995 0.000000 0.213531
0.820007 0.000000 0.218628
0.820007 0.000000 0.218628
0.820007 0.000000 0.218628
0.820007 0.000000 0.218628
0.820007 0.000000 0.218628
0.820007 0.000000 0.218628
0.002502 0.009369 0.000000
0.002502 0.009369 0.000000
0.002502 0.009369 0.000000
0.002502 0.009369 0.000000
0.010529 0.006561 0.000000
0.048157 0.000000 0.003479
0.085815 0.000000 0.013519
0.123444 0.000000 0.023529
0.161072 0.000000 0.033569
0.198730 0.000000 0.043610
0.236359 0.000000 0.053680
0.274017 0.000000 0.063690
0.311646 0.000000 0.073730
0.349304 0.000000 0.083740
0.386932 0.000000 0.093811
0.424561 0.000000 0.103851
0.462250 0.000000 0.113861
0.499878 0.000000 0.123871
0.537537 0.000000 0.134003
0.575165 0.000000 0.143921
0.612793 0.000000 0.153961
0.650452 0.000000 0.164032
0.688080 0.000000 0.174042
0.725708 0.000000 0.184082
0.763367 0.000000 0.194183
0.800995 0.000000 0.204163
0.820007 0.000000 0.209198
0.820007 0.000000 0.209198
0.820007 0.000000 0.209198
0.820007 0.000000 0.209198
0.820007 0.000000 0.209198
0.820007 0.000000 0.209198
0.944214 0.045898 0.277496
0.945557 0.040924 0.274811
0.946869 0.036041 0.265533
0.953156 0.034332 0.265839
0.948212 0.031097 0.263062
0.953156 0.034332 0.265839
0.960754 0.027710 0.263947
0.967072 0.025970 0.264465
0.965729 0.030914 0.273987
0.983215 0.030670 0.277405
0.989502 0.028961 0.270752
0.976929 0.032379 0.277039
0.961121 0.026367 0.283569
0.817017 0.021240 0.229706
0.305145 0.000000 0.089020
0.000000 0.000000 0.000000
0.259308 0.017914 0.058228
0.292908 0.203186 0.172760
0.335938 0.142822 0.156586
0.570953 0.006104 0.132965
0.922119 0.019989 0.237152
0.922638 0.060883 0.288116
0.882538 0.037354 0.278564
0.875488 0.041779 0.253265
0.881012 0.042908 0.269012
0.876251 0.039062 0.265747
0.876831 0.036865 0.250946
0.883118 0.035156 0.244263
0.892944 0.041626 0.256958
0.896790 0.049042 0.275879
0.903076 0.047333 0.276306
0.830536 0.035919 0.253784
0.785767 0.000000 0.190674
0.828247 0.022766 0.232788
0.809418 0.027863 0.224579
0.815674 0.026184 0.224915
0.795929 0.013306 0.206482
0.801971 0.012543 0.228027
0.808228 0.010834 0.228485
0.790955 0.010315 0.224335
0.764038 0.002045 0.207611
0.691803 0.000000 0.192383
0.660767 0.000000 0.179871
0.594116 0.000000 0.176666
0.492340 0.000000 0.142914
0.453156 0.000000 0.139618
0.386444 0.000000 0.114075
0.349854 0.000000 0.099670
0.519897 0.065521 0.175690
0.407440 0.219604 0.200836
0.407623 0.298187 0.264557
0.341949 0.244415 0.227753
0.417236 0.143494 0.160278
0.765991 0.037842 0.234467
0.817810 0.000000 0.213440
0.801483 0.000000 0.210754
0.790039 0.000000 0.220459
0.760468 0.000000 0.215912
0.781342 0.000000 0.212891
0.808655 0.000000 0.211060
0.859589 0.000000 0.220978
0.833099 0.000000 0.221893
0.778595 0.000000 0.197693
0.743988 0.000000 0.190186
0.864624 0.017426 0.223633
0.830933 0.012878 0.213806
0.747528 0.000000 0.183228
0.743988 0.000000 0.197083
0.829193 0.000000 0.221680
0.842285 0.000000 0.224335
0.775787 0.000000 0.210052
0.777618 0.000000 0.196503
0.793671 0.000244 0.206146
0.821014 0.006470 0.222443
0.797241 0.008392 0.218506
0.779907 0.008148 0.226898
0.020142 0.000000 0.005371
0.000000 0.000000 0.000000
0.170959 0.064697 0.071747
0.352905 0.101776 0.138000
0.209381 0.119507 0.000000
0.214996 0.118530 0.000000
0.206787 0.125397 0.000000
0.206787 0.125397 0.000000
0.193054 0.122345 0.000000
0.184937 0.106903 0.000000
0.183929 0.122406 0.000000
0.197632 0.119598 0.000000
0.181305 0.115875 0.000000
0.189514 0.120575 0.000000
0.167572 0.107361 0.000000
0.173218 0.101196 0.000000
0.258331 0.143982 0.000000
0.227722 0.119751 0.000000
0.206787 0.109009 0.000000
0.193054 0.116760 0.000000
0.198669 0.110382 0.000000
0.205841 0.112579 0.000000
0.214996 0.124176 0.000000
0.161438 0.099884 0.000000
0.173218 0.106232 0.000000
0.173218 0.111145 0.000000
0.193054 0.116760 0.000000
0.243011 0.125000 0.000000
0.226715 0.117523 0.000000
0.226715 0.129639 0.000000
0.215942 0.114990 0.000000
0.213959 0.122498 0.000000
0.234863 0.133728 0.000000
0.215942 0.120361 0.000000
0.206787 0.119965 0.000000
0.211365 0.106567 0.000000
0.226715 0.099243 0.000000
0.198669 0.105011 0.000000
0.202209 0.117004 0.000000
0.185883 0.113586 0.000000
0.203247 0.118591 0.000000
0.194092 0.123444 0.000000
0.197632 0.119598 0.000000
0.181305 0.110657 0.000000
0.181305 0.110657 0.000000
0.205841 0.118286 0.000000
0.222137 0.114380 0.000000
0.169617 0.099701 0.000000
0.165009 0.106445 0.000000
0.160431 0.108429 0.000000
0.165009 0.101593 0.000000
0.169617 0.099701 0.000000
0.185883 0.103302 0.000000
0.202209 0.117004 0.000000
0.214996 0.124176 0.000000
0.202209 0.122528 0.000000
0.231323 0.126556 0.000000
0.231323 0.138641 0.000000
0.206787 0.119965 0.000000
0.201263 0.127014 0.000000
0.210419 0.121277 0.000000
0.214996 0.129852 0.000000
0.214996 0.129852 0.000000
0.194092 0.128754 0.000000
0.194092 0.123444 0.000000
0.182343 0.116852 0.000000
0.177765 0.114044 0.000000
0.182343 0.102112 0.000000
0.206787 0.114441 0.000000
0.223114 0.134216 0.000000
0.190460 0.116425 0.000000
0.176758 0.118286 0.000000
0.205841 0.129791 0.000000
0.205841 0.124084 0.000000
0.202209 0.117004 0.000000
0.166046 0.098175 0.000000
0.195038 0.119324 0.000000
0.231323 0.138641 0.000000
0.239410 0.142975 0.000000
0.198669 0.115692 0.000000
0.177765 0.104156 0.000000
0.205841 0.118286 0.000000
0.217560 0.142242 0.000000
0.217560 0.136078 0.000000
0.199615 0.117157 0.000000
0.214996 0.129852 0.000000
0.191498 0.112762 0.000000
0.198669 0.120972 0.000000
0.186920 0.114807 0.000000
0.214996 0.124176 0.000000
0.199615 0.117157 0.000000
0.182343 0.111969 0.000000
0.202209 0.122528 0.000000
0.185883 0.103302 0.000000
0.206787 0.103455 0.000000
0.174164 0.093109 0.000000
0.186920 0.109924 0.000000
0.174164 0.097839 0.000000
0.219574 0.121521 0.000000
0.153259 0.090851 0.000000
0.166992 0.090820 0.000000
0.227722 0.125549 0.000000
0.198669 0.120972 0.000000
0.202209 0.117004 0.000000
0.182343 0.106964 0.000000
0.206787 0.119965 0.000000
0.197632 0.108459 0.000000
0.182343 0.102112 0.000000
0.202209 0.122528 0.000000
0.206787 0.119965 0.000000
0.206787 0.119965 0.000000
0.190460 0.116425 0.000000
0.194092 0.118073 0.000000
0.201263 0.103729 0.000000
0.185883 0.108429 0.000000
0.181305 0.115875 0.000000
0.169617 0.109192 0.000000
0.185883 0.118713 0.000000
0.203247 0.113281 0.000000
0.230255 0.130768 0.000000
0.210419 0.115540 0.000000
0.194092 0.118073 0.000000
0.203247 0.113281 0.000000
0.201263 0.115387 0.000000
0.211365 0.117462 0.000000
0.185883 0.118713 0.000000
0.185883 0.113586 0.000000
0.214996 0.129852 0.000000
0.210419 0.126953 0.000000
0.189514 0.120575 0.000000
0.209381 0.125549 0.000000
0.215942 0.114990 0.000000
0.205841 0.118286 0.000000
0.219574 0.121521 0.000000
0.202209 0.105896 0.000000
0.206787 0.119965 0.000000
0.189514 0.120575 0.000000
0.193054 0.116760 0.000000
0.196686 0.130035 0.000000
0.197632 0.119598 0.000000
0.197632 0.119598 0.000000
0.197632 0.125214 0.000000
0.202209 0.122528 0.000000
0.174164 0.102631 0.000000
0.210419 0.126953 0.000000
0.189514 0.120575 0.000000
0.197632 0.108459 0.000000
0.213959 0.116547 0.000000
0.243958 0.127472 0.000000
0.223114 0.128387 0.000000
0.239410 0.130524 0.000000
0.206787 0.119965 0.000000
0.202209 0.133575 0.000000
0.198669 0.110382 0.000000
0.222137 0.126648 0.000000
0.219574 0.110260 0.000000
0.257019 0.151489 0.004852
0.185883 0.108429 0.000000
0.218536 0.137238 0.000000
0.234863 0.140015 0.000000
0.181305 0.115875 0.000000
0.198669 0.115692 0.000000
0.207825 0.111023 0.000000
0.227722 0.119751 0.000000
0.215942 0.114990 0.000000
0.211365 0.117462 0.000000
0.231323 0.120514 0.000000
0.205841 0.112579 0.000000
0.214996 0.118530 0.000000
0.198669 0.120972 0.000000
0.198669 0.126251 0.000000
0.201263 0.132812 0.000000
0.213959 0.128387 0.000000
0.197632 0.114105 0.000000
0.177765 0.104156 0.000000
0.182343 0.106964 0.000000
0.185883 0.113586 0.000000
0.205841 0.129791 0.000000
0.213959 0.140320 0.000000
0.185883 0.118713 0.000000
0.161438 0.090729 0.000000
0.178741 0.100800 0.000000
0.195038 0.098999 0.000000
0.207825 0.116241 0.000000
0.181305 0.105560 0.000000
0.226715 0.129639 0.000000
0.190460 0.116425 0.000000
0.169617 0.114044 0.000000
0.213959 0.140320 0.000000
0.210419 0.132690 0.000000
0.218536 0.131348 0.000000
0.184937 0.117767 0.000000
0.176758 0.112976 0.000000
0.219574 0.143982 0.000000
0.182343 0.106964 0.000000
0.185883 0.108429 0.000000
0.189514 0.120575 0.000000
0.219574 0.132721 0.000000
0.214996 0.129852 0.000000
0.161438 0.095337 0.000000
0.174164 0.107330 0.000000
0.202209 0.117004 0.000000
0.165009 0.101593 0.000000
0.190460 0.111359 0.000000
0.230255 0.143463 0.000000
0.182343 0.116852 0.000000
0.178741 0.105469 0.000000
0.222137 0.126648 0.000000
0.233856 0.138397 0.000000
0.202209 0.122528 0.000000
0.195038 0.119324 0.000000
0.191498 0.117676 0.000000
0.259308 0.139282 0.000000
0.225677 0.140503 0.000000
0.202209 0.111511 0.000000
0.219574 0.115906 0.000000
0.203247 0.113281 0.000000
0.205841 0.129791 0.000000
0.169617 0.099701 0.000000
0.250183 0.139984 0.000000
0.176758 0.107849 0.000000
0.173218 0.106232 0.000000
0.234863 0.121216 0.000000
0.212402 0.119171 0.000000
0.198669 0.115692 0.000000
0.190460 0.095978 0.000000
0.227722 0.131317 0.000000
0.211365 0.117462 0.000000
0.224182 0.118866 0.000000
0.203247 0.123840 0.000000
0.190460 0.116425 0.000000
0.174164 0.097839 0.000000
0.157837 0.089355 0.000000
0.190460 0.111359 0.000000
0.218536 0.125427 0.000000
0.177765 0.109009 0.000000
0.177765 0.114044 0.000000
0.205841 0.124084 0.000000
0.181305 0.121063 0.000000
0.222137 0.145081 0.000000
0.178741 0.110229 0.000000
0.198669 0.110382 0.000000
0.182343 0.106964 0.000000
0.166046 0.102753 0.000000
0.204803 0.134766 0.000000
0.161438 0.104492 0.000000
0.168610 0.113312 0.000000
0.201263 0.103729 0.000000
0.166046 0.093658 0.000000
0.173218 0.106232 0.000000
0.202209 0.122528 0.000000
0.191498 0.107910 0.000000
0.182343 0.097137 0.000000
0.205841 0.118286 0.000000
0.213959 0.116547 0.000000
0.176758 0.112976 0.000000
0.178741 0.105469 0.000000
0.212402 0.119171 0.000000
0.219574 0.127167 0.000000
0.156860 0.101593 0.000000
0.212982 0.120697 0.000000
0.201263 0.121185 0.000000
0.225677 0.134155 0.000000
0.197632 0.114105 0.000000
0.222137 0.132751 0.000000
0.193054 0.116760 0.000000
0.212982 0.145752 0.000000
0.238464 0.134827 0.000000
0.218536 0.119568 0.000000
0.201263 0.103729 0.000000
0.218536 0.119568 0.000000
0.165009 0.101593 0.000000
0.173218 0.106232 0.000000
0.185883 0.113586 0.000000
0.247559 0.147339 0.000000
0.194092 0.112793 0.000000
0.630188 0.461060 0.408997
0.847870 0.620300 0.550262
0.862732 0.631165 0.559906
0.880859 0.679840 0.595947
0.852875 0.623932 0.553467
0.778625 0.569641 0.505310
0.847870 0.620300 0.550262
0.773682 0.566040 0.502136
0.884857 0.657501 0.581238
0.664856 0.486420 0.431519
0.605469 0.442932 0.392975
0.773682 0.566040 0.502136
0.878204 0.694733 0.605743
0.876862 0.702179 0.610687
0.724243 0.529846 0.470001
0.876862 0.702179 0.610687
0.874176 0.717224 0.620575
0.862183 0.784271 0.664795
0.858154 0.806671 0.679596
0.874176 0.717224 0.620575
0.219604 0.160736 0.142548
0.219604 0.160736 0.142548
0.140503 0.102753 0.091217
0.125610 0.091888 0.081543
0.021759 0.015930 0.014130
0.000000 0.000000 0.000000
0.000000 0.000000 0.000000
0.160431 0.108429 0.000000
0.134521 0.084106 0.000000
0.139099 0.082886 0.000000
0.195038 0.114227 0.000000
0.214996 0.118530 0.000000
0.882507 0.645660 0.572754
0.858154 0.806671 0.679596
0.858154 0.806671 0.679596
0.858154 0.806671 0.679596
0.858154 0.806671 0.679596
0.858154 0.806671 0.679596
0.858154 0.806671 0.679596
0.858154 0.806671 0.679596
0.863495 0.776794 0.659882
0.748932 0.547943 0.486084
0.858154 0.806671 0.679596
0.862183 0.784271 0.664795
0.882202 0.672363 0.591034
0.823120 0.602203 0.534210
0.858154 0.806671 0.679596
0.862183 0.784271 0.664795
0.734131 0.537079 0.476440
0.610443 0.446655 0.396179
0.476868 0.348907 0.309509
0.000000 0.000000 0.000000
0.140503 0.102753 0.091217
0.000000 0.000000 0.000000
0.858154 0.806671 0.679596
0.585724 0.428497 0.380096
0.874176 0.717224 0.620575
0.884857 0.657501 0.581238
0.659912 0.482727 0.428284
0.000000 0.000000 0.000000
0.000000 0.000000 0.000000
0.000000 0.000000 0.000000
0.211365 0.128296 0.000000
0.203247 0.118591 0.000000
0.174164 0.097839 0.000000
0.206787 0.114441 0.000000
0.198669 0.105011 0.000000
0.181305 0.105560 0.000000
0.263306 0.147644 0.003174
0.234863 0.140015 0.000000
0.197632 0.114105 0.000000
0.134521 0.088196 0.000000
0.183929 0.116608 0.000000
0.194092 0.102112 0.000000
0.254730 0.149933 0.000000
0.210419 0.115540 0.000000
0.202209 0.105896 0.000000
0.235870 0.123627 0.000000
0.175781 0.101013 0.000000
0.234863 0.140015 0.000000
0.213959 0.116547 0.000000
0.173218 0.106232 0.000000
0.156860 0.097046 0.000000
0.194092 0.118073 0.000000
0.162445 0.096619 0.000000
0.190460 0.111359 0.000000
0.206787 0.114441 0.000000
0.182343 0.106964 0.000000
0.195038 0.114227 0.000000
0.182343 0.116852 0.000000
0.186920 0.109924 0.000000
0.174164 0.102631 0.000000
0.198669 0.115692 0.000000
0.231323 0.108490 0.000000
0.211365 0.117462 0.000000
0.195038 0.119324 0.000000
0.864838 0.769318 0.654938
0.862732 0.631165 0.559906
0.862732 0.631165 0.559906
0.808289 0.591370 0.524597
0.724243 0.529846 0.470001
0.862732 0.631165 0.559906
0.679688 0.497284 0.441132
0.496643 0.363403 0.322388
0.318542 0.233124 0.206757
0.000000 0.000000 0.000000
0.511505 0.374237 0.331970
0.635193 0.464691 0.412231
0.595581 0.435730 0.386536
0.358154 0.262024 0.232452
0.000000 0.000000 0.000000
0.000000 0.000000 0.000000
0.196686 0.118256 0.000000
0.200226 0.119720 0.000000
0.197632 0.114105 0.000000
0.194092 0.107361 0.000000
0.198669 0.110382 0.000000
0.193054 0.116760 0.000000
0.196686 0.130035 0.000000
0.173218 0.101196 0.000000
0.186920 0.104950 0.000000
0.207825 0.121460 0.000000
0.224182 0.130035 0.000000
0.218536 0.125427 0.000000
0.197632 0.119598 0.000000
0.210419 0.121277 0.000000
0.243958 0.121368 0.000000
0.232269 0.122833 0.000000
0.880859 0.679840 0.595947
0.858154 0.806671 0.679596
0.875519 0.709656 0.615631
0.847870 0.620300 0.550262
0.858154 0.806671 0.679596
0.858154 0.806671 0.679596
0.858154 0.806671 0.679596
0.858154 0.806671 0.679596
0.858154 0.806671 0.679596
0.858154 0.806671 0.679596
0.858154 0.806671 0.679596
0.858154 0.806671 0.679596
0.382904 0.280090 0.248474
0.847870 0.620300 0.550262
0.858154 0.806671 0.679596
0.856812 0.810883 0.684479
0.763763 0.558807 0.495728
0.669800 0.490021 0.434692
0.874176 0.717224 0.620575
0.457092 0.334473 0.296661
0.412537 0.301788 0.267761
0.091003 0.066620 0.059082
0.066254 0.048492 0.043030
0.041595 0.030426 0.027008
0.000000 0.000000 0.000000
0.000000 0.000000 0.000000
0.000000 0.000000 0.000000
0.000000 0.000000 0.000000
0.110809 0.081024 0.071899
0.377930 0.276550 0.245300
0.536224 0.392303 0.348022
0.852875 0.623932 0.553467
0.168610 0.098297 0.000000
0.195038 0.109192 0.000000
0.183319 0.108398 0.000000
0.194092 0.112793 0.000000
0.227722 0.125549 0.000000
0.220551 0.123291 0.000000
0.224182 0.124451 0.000000
0.227722 0.131317 0.000000
0.198669 0.120972 0.000000
0.224182 0.130035 0.000000
0.199615 0.117157 0.000000
0.227722 0.137146 0.000000
0.256744 0.140717 0.000000
0.185883 0.113586 0.000000
0.185883 0.118713 0.000000
0.169617 0.109192 0.000000
0.186920 0.114807 0.000000
0.210419 0.126953 0.000000
0.201263 0.127014 0.000000
0.155853 0.100769 0.000000
0.209381 0.119507 0.000000
0.196686 0.124115 0.000000
0.210419 0.126953 0.000000
0.207825 0.126740 0.000000
0.226715 0.141815 0.000000
0.250183 0.146912 0.000000
0.185883 0.108429 0.000000
0.211365 0.111969 0.000000
0.214996 0.124176 0.000000
0.220123 0.143219 0.000000
0.190460 0.111359 0.000000
0.185883 0.113586 0.000000
0.197632 0.114105 0.000000
0.262909 0.139984 0.000000
0.203247 0.113281 0.000000
0.206787 0.109009 0.000000
0.238464 0.128387 0.000000
0.217560 0.123657 0.000000
0.243011 0.125000 0.000000
0.202209 0.111511 0.000000
0.202209 0.105896 0.000000
0.190460 0.106201 0.000000
0.166046 0.089050 0.000000
0.188477 0.102478 0.000000
0.201263 0.127014 0.000000
0.197632 0.114105 0.000000
0.213959 0.122498 0.000000
0.226715 0.123535 0.000000
0.213959 0.128387 0.000000
0.190460 0.106201 0.000000
0.214996 0.124176 0.000000
0.195038 0.119324 0.000000
0.240417 0.138580 0.000000
0.170593 0.105591 0.000000
0.198669 0.110382 0.000000
0.170593 0.110168 0.000000
0.182343 0.102112 0.000000
0.197632 0.102966 0.000000
0.198669 0.115692 0.000000
0.211365 0.122864 0.000000
0.231323 0.126556 0.000000
0.186920 0.109924 0.000000
0.206787 0.119965 0.000000
0.211365 0.122864 0.000000
0.326172 0.221802 0.200104
0.356812 0.269409 0.237335
0.389191 0.262024 0.246765
0.307373 0.219025 0.205231
0.303711 0.229340 0.197144
0.438721 0.128601 0.142609
0.205841 0.118286 0.000000
0.234863 0.133728 0.000000
0.190460 0.111359 0.000000
0.197632 0.119598 0.000000
0.190460 0.106201 0.000000
0.191498 0.102997 0.000000
0.198669 0.120972 0.000000
0.211365 0.128296 0.000000
0.173218 0.106232 0.000000
0.168610 0.108398 0.000000
0.206787 0.119965 0.000000
0.231323 0.132538 0.000000
0.218536 0.131348 0.000000
0.213959 0.122498 0.000000
0.197632 0.114105 0.000000
0.176758 0.107849 0.000000
0.204803 0.122589 0.000000
0.166046 0.093658 0.000000
0.169617 0.104523 0.000000
0.202209 0.122528 0.000000
0.230255 0.137054 0.000000
0.176758 0.097351 0.000000
0.194092 0.107361 0.000000
0.202209 0.111511 0.000000
0.174164 0.088348 0.000000
0.173218 0.091187 0.000000
0.990845 0.024109 0.275696
0.995850 0.027252 0.278137
0.999390 0.035431 0.283478
0.972900 0.047211 0.284271
0.619537 0.000000 0.169098
0.443024 0.000000 0.120483
0.409943 0.000000 0.106995
0.461060 0.067871 0.142944
0.358551 0.242859 0.209564
0.389191 0.283386 0.246765
0.387848 0.276581 0.251709
0.332520 0.225067 0.198395
0.343414 0.072510 0.091675
0.609100 0.000000 0.160156
0.697876 0.000000 0.195923
0.744385 0.000000 0.194824
0.797241 0.000000 0.207275
0.817963 0.000000 0.222473
0.844391 0.000000 0.233978
0.870422 0.000000 0.232483
0.887726 0.000000 0.241425
0.909576 0.000000 0.245819
0.932587 0.002960 0.251495
0.942322 0.009979 0.257629
0.886719 0.000000 0.246155
0.815918 0.000000 0.231262
0.642120 0.000000 0.169769
0.519775 0.000000 0.144653
0.485199 0.000000 0.142731
0.377319 0.000000 0.101898
0.402252 0.070129 0.124298
0.368042 0.269287 0.238831
0.449036 0.000000 0.138885
0.409363 0.000000 0.119934
0.388489 0.000000 0.111450
0.429138 0.000000 0.130554
0.629272 0.000000 0.172363
0.377655 0.117828 0.123596
0.322571 0.217804 0.192017
0.346497 0.288544 0.253845
0.392761 0.287384 0.254913
0.358154 0.262024 0.232452
0.395325 0.193817 0.181335
0.646088 0.072235 0.213470
1.000000 0.095032 0.351776
1.000000 0.093658 0.312714
0.987823 0.056793 0.278412
0.987823 0.056793 0.299774
0.963989 0.058746 0.288605
0.968903 0.061920 0.291321
0.968903 0.061920 0.291321
0.975189 0.060211 0.284698
0.970245 0.057068 0.282013
0.973846 0.065155 0.294098
0.975189 0.060211 0.291626
0.981476 0.058502 0.284973
0.978821 0.068359 0.296875
0.976135 0.078217 0.294586
0.978455 0.091248 0.302216
0.974457 0.105988 0.323517
0.773621 0.074036 0.256104
0.401306 0.000000 0.114624
0.371796 0.000000 0.109558
0.181946 0.000000 0.055603
1.000000 0.082825 0.327332
0.521881 0.000000 0.147797
0.000000 0.000000 0.000000
0.368286 0.157104 0.152252
0.297455 0.247437 0.198822
0.327393 0.131470 0.169983
0.625763 0.018524 0.172852
0.955811 0.024536 0.261230
0.955383 0.047394 0.273499
0.945892 0.018127 0.248474
0.929749 0.013367 0.249634
0.917175 0.016785 0.241455
0.907288 0.010376 0.228912
0.896057 0.008881 0.225708
0.907288 0.010376 0.235931
0.922119 0.019989 0.258514
0.922119 0.019989 0.251465
0.923065 0.037933 0.268494
0.932983 0.044312 0.274078
0.925293 0.051025 0.261902
0.940186 0.060638 0.277313
0.768158 0.029938 0.223877
0.650635 0.000000 0.181732
0.589569 0.000000 0.175598
0.568176 0.000000 0.171326
0.435303 0.000000 0.130402
0.392548 0.000000 0.121033
0.437286 0.000000 0.132172
0.611053 0.000000 0.162323
0.432312 0.066559 0.107544
0.344635 0.272217 0.217926
0.306946 0.245361 0.228149
0.947144 0.000000 0.241180
0.967438 0.024628 0.290253
0.960388 0.050629 0.290497
0.989502 0.028961 0.270752
0.981873 0.035675 0.279846
0.973877 0.043640 0.296173
0.993164 0.037140 0.283142
0.999390 0.035431 0.290771
1.000000 0.031281 0.288605
1.000000 0.032227 0.296387
1.000000 0.032227 0.296387
1.000000 0.028198 0.294159
1.000000 0.019531 0.295044
1.000000 0.019531 0.288818
0.995575 0.006622 0.279938
0.984863 0.000000 0.274109
0.989288 0.008331 0.273224
0.998871 0.016113 0.279785
